targets/EPSON_ET-2800/CustomET2800Chart.ti3
CTI3   

DESCRIPTOR "Argyll Calibration Target chart information 3"
ORIGINATOR "Argyll printread"
CREATED "Sat Jun  1 14:00:20 2024"
DEVICE_CLASS "OUTPUT"
TOTAL_INK_LIMIT "300.0"
COLOR_REP "iRGB_XYZ"

NUMBER_OF_FIELDS 7
BEGIN_DATA_FORMAT
SAMPLE_ID RGB_R RGB_G RGB_B XYZ_X XYZ_Y XYZ_Z 
END_DATA_FORMAT

NUMBER_OF_SETS 962
BEGIN_DATA
1 100.0000 100.0000 100.0000 23.74610 19.49015 46.67724 
2 52.34150 71.88373 66.60716 40.81918 47.88695 87.21933 
3 26.31724 20.56611 78.65110 19.87860 16.39031 46.19230 
4 92.07294 7.975891 93.06325 73.43599 65.76908 94.12102 
5 66.44236 0.00000 87.45098 30.33083 28.64453 50.36207 
6 47.60662 62.70237 72.39796 28.86602 25.87080 54.81092 
7 43.57824 68.88380 33.24636 9.173786 14.24678 11.02671 
8 18.03311 14.08713 75.71374 37.48830 53.62300 35.97313 
9 100.0000 62.35752 72.80995 16.16896 13.02385 40.09207 
10 0.00000 0.00000 100.0000 27.11166 24.93427 8.256643 
11 100.0000 0.00000 0.00000 1.956178 1.990755 2.181066 
12 0.00000 100.0000 100.0000 56.39529 43.38104 16.93846 
13 0.00000 100.0000 0.00000 27.11318 17.78554 33.36091 
14 100.0000 0.00000 100.0000 4.266086 3.882277 5.453513 
15 0.00000 50.08774 100.0000 31.68601 41.53048 31.89636 
16 0.00000 51.60296 0.00000 6.028853 6.695964 5.501982 
17 0.00000 0.00000 52.49409 14.58395 15.96390 8.183328 
18 100.0000 0.00000 49.66659 29.50107 41.53844 70.57248 
19 100.0000 54.13138 100.0000 87.13722 84.76921 90.12237 
20 100.0000 51.50988 0.00000 22.81791 27.28435 10.87754 
21 47.03441 0.00000 0.00000 13.29767 15.69932 7.780624 
22 100.0000 100.0000 51.36797 38.75338 32.76356 17.09098 
23 0.00000 100.0000 51.40764 27.57090 30.11656 81.23078 
24 50.22660 100.0000 100.0000 21.92965 23.44173 13.72999 
25 49.56435 100.0000 0.00000 45.29562 59.50758 59.62267 
26 49.32784 0.00000 100.0000 11.63892 16.70078 8.021088 
27 0.00000 46.82383 51.61975 70.75626 79.02358 103.8923 
28 100.0000 52.71077 50.46616 18.43879 21.70506 11.12052 
29 51.10399 50.11063 0.00000 25.83495 23.46077 28.09413 
30 53.91318 0.00000 48.08881 10.07697 13.48243 18.14416 
31 50.48142 47.03441 100.0000 20.26411 13.72271 10.82009 
32 48.47181 100.0000 53.12123 20.90676 21.68993 67.39817 
33 0.00000 24.87068 0.00000 91.54220 98.03540 95.56905 
34 0.00000 0.00000 26.35233 9.250380 8.747299 6.534101 
35 100.0000 27.48913 100.0000 11.87399 16.31983 9.056956 
36 73.63699 0.00000 0.00000 60.06493 43.02582 40.83349 
37 0.00000 74.40604 100.0000 25.17501 27.15322 9.603457 
38 100.0000 100.0000 25.56039 30.86806 30.62450 66.13303 
39 100.0000 74.96147 0.00000 3.664892 3.819618 4.223995 
40 100.0000 0.00000 25.44289 43.86214 42.61151 42.67207 
41 74.16953 0.00000 100.0000 5.123471 5.461238 5.176684 
42 0.00000 25.13924 100.0000 59.97057 69.70160 40.21505 
43 0.00000 100.0000 25.25216 33.51824 47.90615 64.01459 
44 100.0000 0.00000 74.95079 26.03022 15.81853 23.95961 
45 100.0000 26.25925 0.00000 11.22895 9.828806 10.07183 
46 75.57794 100.0000 100.0000 60.76236 61.40105 90.55629 
47 75.31090 100.0000 0.00000 11.73278 10.05843 8.175995 
48 0.00000 100.0000 75.70001 19.89391 12.97967 12.78258 
49 100.0000 100.0000 76.68574 49.73149 28.25309 20.57657 
50 25.29641 100.0000 0.00000 14.21789 18.12069 21.46963 
51 25.90219 100.0000 100.0000 8.765121 9.965950 15.13551 
52 50.69505 56.88869 47.85382 11.91635 10.06730 37.94837 
53 25.36049 0.00000 100.0000 7.390382 8.603448 6.563430 
54 0.00000 75.90295 0.00000 41.74651 25.26548 18.50727 
55 100.0000 77.76303 100.0000 22.44047 19.29561 13.91935 
56 0.00000 0.00000 76.47059 60.26068 41.50047 20.86202 
57 23.39513 0.00000 0.00000 22.76038 20.13686 38.73759 
58 0.00000 69.19966 27.59442 74.92044 62.52445 52.25234 
59 31.42901 66.06546 100.0000 66.77294 77.32025 99.42020 
60 65.30709 73.92996 100.0000 76.19517 79.76758 63.45727 
61 0.00000 69.68490 74.46555 7.365091 9.661855 14.68943 
62 100.0000 26.33097 71.18334 9.724548 10.27810 10.70724 
63 24.76081 0.00000 75.21935 22.94666 34.89164 12.04991 
64 28.55726 0.00000 27.17479 31.29033 39.84499 10.15666 
65 25.39864 27.82788 0.00000 68.00318 56.43974 14.84136 
66 71.77386 100.0000 69.82681 10.62929 7.956856 8.535675 
67 73.30892 100.0000 33.27535 5.384054 4.964132 5.403116 
68 100.0000 75.28649 73.23262 65.59823 52.36950 11.33896 
69 30.92393 71.75402 0.00000 5.891857 5.351186 5.498784 
70 72.77790 29.37209 0.00000 59.40734 61.84532 12.30711 
71 0.00000 28.44282 28.48707 56.57617 53.82887 92.15255 
72 100.0000 74.49760 29.04555 20.87083 25.64448 57.61701 
73 100.0000 28.80140 29.67575 34.12359 46.58799 15.40462 
74 72.66346 70.94224 0.00000 10.89975 11.65616 34.73841 
75 71.23980 0.00000 28.15595 27.37172 22.45137 8.343826 
76 0.00000 29.58114 71.73724 31.67195 41.28129 11.19213 
77 28.94484 100.0000 72.19348 84.31871 90.19562 98.07649 
78 68.96010 0.00000 74.11002 24.04838 24.66970 25.13151 
79 28.36194 100.0000 28.92805 12.46083 15.48369 24.60014 
80 28.77699 30.05417 100.0000 3.493029 3.266210 5.740277 
81 73.31350 27.51354 100.0000 17.59644 12.63907 8.709250 
82 32.15229 27.15953 49.31106 15.01584 16.14092 49.03118 
83 57.21218 33.85367 64.93782 24.51753 37.77886 46.69929 
84 26.21347 0.00000 46.14633 63.15467 77.52377 62.70513 
85 100.0000 51.47631 76.67659 8.339428 8.782373 6.878304 
86 0.00000 23.08232 43.70947 28.46666 18.17756 10.75048 
87 0.00000 48.97993 77.45174 9.860739 13.49516 9.068178 
88 81.96994 0.00000 47.79889 13.87504 20.53795 11.45549 
89 56.58045 30.44938 34.10849 53.92760 54.93918 64.59013 
90 100.0000 77.17708 46.92454 86.07873 87.46701 74.85459 
91 22.36667 77.36629 54.21836 61.03101 49.23887 78.67603 
92 48.66865 23.28527 0.00000 4.318344 4.279916 6.296430 
93 50.69963 23.65301 100.0000 35.30991 26.31723 23.31508 
94 30.78508 49.68185 28.52522 21.90408 20.37026 58.06690 
95 50.26627 71.84710 78.08042 19.63683 21.93468 9.304604 
96 0.00000 78.38407 52.85725 14.06696 24.15722 14.06529 
97 20.72023 52.35981 100.0000 49.54654 47.32602 60.38529 
98 19.27062 100.0000 51.81659 21.16592 15.74515 37.18309 
99 73.57595 51.77234 27.39147 23.09092 30.41363 74.83825 
100 46.52934 78.39017 25.89151 18.34393 11.81705 17.97402 
101 47.43267 76.71931 0.00000 48.78400 44.61824 78.32477 
102 77.31594 52.74128 100.0000 57.58470 72.09563 77.62621 
103 52.51850 0.00000 81.64492 27.34845 39.59153 13.08110 
104 100.0000 53.89944 20.92164 54.50574 70.53914 85.41053 
105 46.13260 100.0000 24.62196 65.96202 42.77711 37.09684 
106 0.00000 38.16129 0.00000 54.87024 33.32744 15.36695 
107 0.00000 43.03960 23.04723 11.73795 13.19354 19.66101 
108 77.27626 55.40093 0.00000 1.440014 1.399339 1.530622 
109 100.0000 22.16526 49.79782 25.25118 28.91520 46.13060 
110 33.44015 55.85412 69.07301 8.586466 11.84418 11.42842 
111 73.95590 100.0000 51.95087 37.82045 42.59340 33.94908 
112 53.54391 84.64027 100.0000 40.81989 27.39132 9.644648 
113 45.82132 0.00000 23.60113 14.02596 16.31208 32.32388 
114 23.00298 45.05989 0.00000 22.54907 35.91457 17.03882 
115 0.00000 0.00000 13.39742 10.51656 7.922308 12.37287 
116 77.05348 57.02907 63.24712 10.49375 12.01006 28.51212 
117 100.0000 41.03609 100.0000 47.37759 38.97091 59.70144 
118 50.17929 100.0000 85.13619 13.14053 14.54190 47.89463 
119 0.00000 87.32586 100.0000 51.67470 46.34890 53.20462 
120 100.0000 100.0000 38.71977 12.70979 15.59973 42.00742 
121 84.35492 16.52094 0.00000 58.87552 47.55311 24.98936 
122 73.31502 73.93301 46.66361 4.875356 4.763370 6.446305 
123 100.0000 16.45991 16.57893 6.315941 7.411640 13.85598 
124 60.16480 0.00000 0.00000 23.08713 26.37060 30.71999 
125 83.06249 84.12146 0.00000 34.14235 41.96682 27.89420 
126 0.00000 82.74357 16.59724 23.82621 27.81534 9.179489 
127 84.01923 83.28222 100.0000 52.10599 49.88364 26.89643 
128 0.00000 100.0000 37.84390 25.40747 30.98796 74.69237 
129 82.49332 100.0000 84.70436 8.235727 9.432424 6.350422 
130 77.96139 35.28954 50.38834 12.99043 11.20411 43.02543 
131 86.57511 0.00000 0.00000 37.84363 29.14253 31.34307 
132 100.0000 0.00000 38.62211 86.41311 88.83562 87.22363 
133 84.42359 100.0000 19.31029 2.815705 3.009065 3.367167 
134 50.62638 65.76486 100.0000 8.238118 7.240913 20.62775 
135 100.0000 13.36080 0.00000 20.50287 22.29902 44.74594 
136 35.24376 25.63516 74.20768 42.44008 56.98180 74.99659 
137 19.09514 88.16968 100.0000 44.74619 41.26526 78.95011 
138 23.82544 23.21202 20.90486 35.09958 43.57529 60.03699 
139 15.70306 15.66796 0.00000 35.31551 29.55685 64.66980 
140 0.00000 100.0000 64.39765 23.10693 33.29248 10.28346 
141 16.39734 86.68650 0.00000 15.37450 25.01715 9.629262 
142 83.99329 0.00000 85.37881 18.78784 15.91164 21.48516 
143 84.85542 16.72694 100.0000 16.29316 18.29577 62.35399 
144 100.0000 87.23735 0.00000 33.69687 33.90422 45.51456 
145 0.00000 59.01579 50.20218 16.83905 12.78984 8.673896 
146 86.88640 0.00000 100.0000 63.68111 44.13695 32.52161 
147 100.0000 84.28931 87.22210 14.95765 15.58420 24.68609 
148 100.0000 18.87846 87.45861 15.19806 25.55578 23.38694 
149 0.00000 17.88205 84.83101 95.93492 100.9358 109.9242 
150 15.47570 14.66087 100.0000 19.52071 29.26088 10.32119 
151 75.22393 79.47662 78.64042 45.97421 31.32128 28.52743 
152 100.0000 0.00000 63.08385 11.01503 14.51842 28.25518 
153 25.15908 68.06134 24.09552 15.63336 11.40412 8.640702 
154 26.63615 77.85000 77.30831 23.48265 36.89836 39.50492 
155 0.00000 11.97375 0.00000 7.693769 9.346913 7.148129 
156 0.00000 0.00000 39.46746 12.16094 18.23444 22.19751 
157 0.00000 34.42893 85.18502 64.16321 54.59272 23.36809 
158 31.65942 12.84657 0.00000 14.85362 20.59933 24.75638 
159 100.0000 68.01251 85.83352 20.98945 31.16104 53.33315 
160 18.81132 100.0000 13.85824 47.86160 29.20021 38.72198 
161 75.84039 28.74647 73.35012 13.31277 10.66118 19.29872 
162 0.00000 12.55970 100.0000 68.34642 49.59684 70.60701 
163 70.83543 100.0000 13.73007 24.08142 30.54822 33.15279 
164 70.83543 80.38758 22.93278 16.20935 15.92108 38.81001 
165 100.0000 13.73465 100.0000 59.14592 66.99484 49.66538 
166 80.21820 28.25666 19.36980 30.09977 35.90213 29.63019 
167 87.62646 100.0000 100.0000 10.73863 14.23388 7.674684 
168 0.00000 87.42351 82.78782 74.16054 71.31751 25.04572 
169 15.98230 0.00000 16.76051 9.828661 15.24479 17.71603 
170 18.41917 100.0000 87.76837 36.98311 51.77250 20.88215 
171 14.07797 41.09560 100.0000 71.45091 73.29322 97.85845 
172 0.00000 66.08835 13.18074 6.155816 5.671490 11.80834 
173 47.82483 79.27214 57.98123 22.53030 21.49148 10.66088 
174 87.24193 100.0000 0.00000 49.98036 45.91296 11.16817 
175 54.42588 56.35920 22.11643 19.80137 14.53521 24.65966 
176 100.0000 32.00885 14.03830 19.28793 14.32628 14.95221 
177 85.29488 100.0000 68.93111 54.70327 30.84784 14.90867 
178 88.31769 33.15633 0.00000 14.23175 10.88145 31.48228 
179 0.00000 37.30220 100.0000 41.85095 27.78667 13.55240 
180 15.75799 0.00000 33.24025 36.53333 35.13937 18.18262 
181 0.00000 43.28679 36.21881 56.87421 43.14597 63.62310 
182 0.00000 88.17884 0.00000 12.32938 14.59736 37.28783 
183 15.07286 0.00000 84.92561 54.85352 52.34458 11.74512 
184 100.0000 35.31853 56.59113 29.96910 31.77953 21.44586 
185 86.63157 0.00000 18.94865 15.31353 13.80835 27.92945 
186 100.0000 100.0000 88.68086 56.80903 59.56642 25.41183 
187 45.40780 0.00000 61.91653 27.83005 26.16687 27.24377 
188 35.44671 0.00000 86.30350 58.81261 64.86496 15.84931 
189 66.72465 86.81010 0.00000 30.35185 38.32693 46.59469 
190 0.00000 14.12375 69.67727 16.94373 26.72583 36.16341 
191 100.0000 84.67384 60.67445 6.805383 9.435330 10.29302 
192 13.21736 62.40635 100.0000 7.591125 6.465499 8.352248 
193 100.0000 68.27497 59.16991 20.37570 21.04816 65.07291 
194 42.66270 37.40597 18.28489 16.64559 20.05296 8.688631 
195 0.00000 83.86053 31.36797 23.83550 26.27853 35.41847 
196 100.0000 83.22423 15.65881 34.65284 32.17053 42.12613 
197 35.99603 100.0000 14.21225 11.22183 12.93840 7.614290 
198 32.23316 85.51461 0.00000 5.648092 7.382065 10.22570 
199 11.56481 0.00000 0.00000 32.29453 38.30574 11.12041 
200 19.21263 52.57801 47.02220 25.90024 38.85304 50.22906 
201 100.0000 62.64286 0.00000 33.58486 22.31712 25.04697 
202 32.74739 16.21729 100.0000 25.96462 40.88151 28.28369 
203 15.17967 0.00000 64.64485 10.44906 11.37496 21.91413 
204 57.49599 54.29007 76.42634 20.67643 30.53669 43.23105 
205 38.67399 0.00000 36.54994 72.80808 67.18385 88.91381 
206 36.65370 87.78058 100.0000 4.754646 5.552346 5.363605 
207 87.67224 68.76478 100.0000 9.092915 13.30770 9.420498 
208 61.32601 0.00000 100.0000 8.839771 9.089025 22.41898 
209 0.00000 62.21408 100.0000 7.048165 5.983335 15.52411 
210 0.00000 15.93347 14.38315 7.938576 10.15955 18.39811 
211 68.73579 12.38727 0.00000 48.41568 44.73709 38.10675 
212 68.72663 17.56466 53.54696 58.67238 54.56018 20.65298 
213 61.90890 100.0000 0.00000 60.86226 63.33907 47.38612 
214 37.80270 100.0000 0.00000 21.46767 18.88520 9.026768 
215 65.50698 100.0000 85.86404 60.01777 36.85774 11.81511 
216 11.99207 61.09102 0.00000 29.14370 31.67599 55.54967 
217 62.86870 100.0000 100.0000 11.65504 15.75405 16.68736 
218 0.00000 56.89784 66.39658 75.30482 80.03343 45.69179 
219 70.56687 86.63767 100.0000 34.70898 30.20775 8.687360 
220 44.11078 100.0000 69.22866 17.87379 29.34212 12.89739 
221 12.83131 0.00000 100.0000 24.02791 14.94299 15.10868 
222 0.00000 61.77005 84.63722 13.01342 10.66927 12.73144 
223 100.0000 0.00000 87.61425 12.39073 11.43032 15.87429 
224 20.22736 39.25689 64.17029 81.06815 70.53916 94.38210 
225 100.0000 64.77607 43.07317 18.11812 13.69387 19.52654 
226 87.00847 68.73121 0.00000 20.29075 33.67573 26.14509 
227 12.70008 100.0000 100.0000 5.614896 5.547158 11.32415 
228 100.0000 14.95384 32.44678 43.05154 54.52278 48.57983 
229 55.79461 0.00000 33.51492 61.19801 58.35003 49.81111 
230 44.55634 39.22484 0.00000 26.75243 38.83622 62.68981 
231 100.0000 0.00000 12.79164 33.59488 35.14436 15.10471 
232 38.49546 43.85901 82.53300 26.35300 25.09704 37.12368 
233 100.0000 34.87602 84.74708 20.51773 13.44164 11.57426 
234 66.76280 14.34653 100.0000 26.94675 27.96429 35.83520 
235 87.69970 0.00000 60.46540 45.46505 48.83993 89.67522 
236 0.00000 82.81071 69.66201 9.234795 13.69423 13.97055 
237 37.05043 65.68093 42.86717 22.11873 21.65802 65.36670 
238 46.99168 20.26246 57.00618 40.11437 55.25141 70.62217 
239 34.66850 100.0000 85.50393 17.82832 29.86845 15.26903 
240 32.53681 0.00000 13.58816 70.81250 48.24941 59.85764 
241 0.00000 14.71427 26.99016 57.18997 47.07817 38.87177 
242 100.0000 89.36599 100.0000 64.28084 49.43650 72.13644 
243 54.87907 20.36774 79.49645 36.34431 33.96453 32.23836 
244 36.12879 52.99763 0.00000 4.447120 5.072242 6.680365 
245 44.00092 37.65469 43.64691 20.25938 15.60786 40.24011 
246 12.66499 100.0000 0.00000 6.477894 6.150357 6.237344 
247 80.84077 49.65896 79.50256 38.26228 34.96063 54.84596 
248 14.24887 100.0000 40.76905 32.44833 44.40225 13.68595 
249 86.36606 100.0000 37.68521 11.23689 11.24084 17.40312 
250 60.98421 100.0000 59.36065 60.34849 34.02610 17.29936 
251 19.83825 35.65118 33.51339 57.56024 51.32758 51.16992 
252 62.04776 57.09163 100.0000 63.42311 71.02278 77.55117 
253 19.34997 18.51530 58.12772 24.37518 35.40744 32.96029 
254 85.79690 0.00000 35.40093 24.81415 35.64465 62.45026 
255 79.72534 54.31144 47.22210 32.47077 21.46682 36.95130 
256 32.51545 43.62554 100.0000 31.18052 28.30993 21.68771 
257 100.0000 100.0000 63.90173 60.47035 41.18350 11.59329 
258 100.0000 100.0000 12.65431 51.32149 31.94906 11.39865 
259 100.0000 87.13359 32.38575 53.90644 55.45390 51.91437 
260 62.08591 40.50355 17.77523 18.95098 12.64414 26.05210 
261 17.78592 38.28794 16.90852 14.29991 15.38557 36.50020 
262 39.18364 17.46395 34.59220 37.29683 40.19266 62.64641 
263 15.27733 100.0000 63.18151 29.58212 26.42745 14.98727 
264 60.86824 0.00000 16.81239 54.39202 59.34081 52.27883 
265 0.00000 41.81430 67.64324 62.91792 65.24144 99.25129 
266 61.40078 84.76844 41.58541 7.461117 10.84786 8.997258 
267 70.82628 0.00000 57.45632 69.39746 56.48671 24.92138 
268 17.53567 40.58747 84.37476 72.94785 72.41726 99.19062 
269 55.91516 63.64080 0.00000 62.15227 53.05292 39.73242 
270 68.40925 43.35546 100.0000 10.94430 8.522957 18.27345 
271 100.0000 50.85069 35.59319 36.81868 52.34982 48.82150 
272 0.00000 0.00000 0.00000 34.14513 28.67748 50.93324 
273 76.33173 19.34234 39.94507 54.55557 64.11479 53.49415 
274 34.37095 87.67834 40.67903 25.58574 36.24704 57.65258 
275 43.90936 43.72473 57.86984 23.43900 21.11234 52.89405 
276 65.63516 44.18250 0.00000 4.590236 4.713341 7.276088 
277 100.0000 39.01579 0.00000 2.794980 2.735627 2.813218 
278 82.99535 76.76204 58.41154 14.45298 11.42713 8.304022 
279 63.91852 70.77592 61.76089 47.51302 46.98632 83.62649 
280 65.21553 42.07065 36.65522 47.70592 50.68604 84.08180 
281 0.00000 100.0000 12.53986 9.006221 8.476441 25.87603 
282 85.71298 35.74884 100.0000 19.29220 29.77621 42.57943 
283 100.0000 15.90448 61.54574 67.82629 78.68393 40.10855 
284 19.57427 16.58350 40.08545 31.56150 18.63503 21.47230 
285 17.67147 61.06050 82.09964 27.53020 28.09546 13.42087 
286 100.0000 51.56634 62.55894 56.83338 70.49493 91.31316 
287 55.62371 16.97261 18.42679 72.58971 61.52234 36.87583 
288 45.47189 100.0000 37.88510 50.16844 32.51321 46.50045 
289 0.00000 100.0000 88.29175 19.86327 32.09447 13.93458 
290 0.00000 30.22354 14.22141 38.76846 46.07893 53.46164 
291 12.65736 31.35882 0.00000 16.16743 22.82354 45.09441 
292 21.32448 67.57458 63.57671 13.06181 11.21235 7.306761 
293 0.00000 34.96452 55.72290 6.736203 8.780032 8.070637 
294 84.10468 65.54055 22.43534 16.94387 13.89764 35.24846 
295 100.0000 65.67636 14.43809 62.03310 34.88508 29.25368 
296 81.30922 67.35180 81.58694 27.38863 33.66841 89.60186 
297 100.0000 65.78775 100.0000 36.59001 34.14976 66.37526 
298 38.97002 66.94896 15.95178 63.29871 68.20180 48.57408 
299 36.74983 64.01770 80.01068 6.782061 5.766898 11.94435 
300 16.84138 69.47585 39.93286 96.00639 101.0110 110.0061 
301 16.77577 59.64904 18.60075 57.21520 33.37641 36.32201 
302 37.83627 0.00000 100.0000 9.340151 7.310491 9.563076 
303 45.69009 63.60418 60.69886 6.589264 6.065894 11.88769 
304 18.19333 23.61181 87.64935 62.55761 40.81284 13.66047 
305 86.60563 36.39582 65.44747 12.87283 12.58317 26.68548 
306 0.00000 0.00000 64.77455 23.54226 19.65828 8.807667 
307 58.42374 84.42512 70.35630 31.72992 37.82559 71.93425 
308 41.93790 83.61639 83.34783 16.29861 14.68403 45.92459 
309 57.58755 38.78233 83.02281 11.42270 15.64253 26.73323 
310 60.41352 100.0000 41.88602 13.37458 9.319107 12.73123 
311 83.63775 41.78225 32.15686 64.69675 42.55892 26.28240 
312 56.85206 68.72511 37.31746 15.19792 15.69567 16.30885 
313 81.29091 75.44976 32.97017 82.03799 84.26211 51.07760 
314 63.96124 47.21141 56.95125 13.08603 17.35421 8.293085 
315 70.46464 86.41489 62.59861 44.02456 45.74535 28.09951 
316 60.07324 28.98909 47.35180 6.603005 6.558226 10.05260 
317 89.25765 44.57160 16.71321 23.54591 30.21951 28.08583 
318 16.90242 89.37514 26.59495 31.11551 31.25924 55.31363 
319 0.00000 0.00000 88.13458 9.964919 8.986264 31.93074 
320 68.14832 0.00000 42.15457 25.98860 39.78265 38.98982 
321 68.22156 56.57130 13.47829 1.931434 1.914306 2.057426 
322 89.19661 15.15831 71.41985 42.42635 50.90173 72.53635 
323 15.01640 54.18784 34.87449 4.925254 5.812377 7.254405 
324 56.07691 15.31853 45.27047 45.12101 36.00535 65.35921 
325 14.09628 75.61761 90.82170 9.583145 9.349617 24.97993 
326 84.54108 24.06958 58.72740 4.130687 4.783844 5.281943 
327 0.00000 55.94415 36.79713 51.12541 52.24544 11.40858 
328 59.10277 12.29267 68.47181 28.37016 30.42382 33.25628 
329 83.08385 86.65751 47.20531 38.46390 44.35299 10.23918 
330 0.00000 63.92157 0.00000 61.47679 66.47185 69.76990 
331 38.37186 100.0000 100.0000 61.72818 66.79285 86.69509 
332 58.67857 70.64927 17.23507 27.46145 20.90339 41.17955 
333 41.90433 32.92287 100.0000 18.85489 15.92429 48.43805 
334 36.33478 86.75822 60.66529 19.29543 16.51896 17.91232 
335 0.00000 12.27893 52.97627 15.20807 10.78034 21.77006 
336 37.16335 50.38834 43.97192 3.212217 3.229447 3.094928 
337 35.18883 12.95796 50.93156 40.09286 22.75997 19.93132 
338 72.48798 14.40146 14.33433 39.87692 25.31810 37.68582 
339 89.49111 83.94598 71.47631 8.579498 7.717595 17.47782 
340 62.46128 85.78164 85.19722 64.01240 60.77668 72.73145 
341 100.0000 41.75479 43.45922 47.45931 64.13410 69.30451 
342 34.34195 83.95209 17.49294 15.09054 14.06023 8.042370 
343 42.81529 23.00755 13.66751 43.74329 25.26029 27.37144 
344 77.58602 11.59075 86.56291 39.82968 40.69166 36.54466 
345 70.28458 69.03182 81.74258 68.74599 76.71268 24.64989 
346 53.33333 42.03098 26.23484 32.21988 34.01145 46.92288 
347 35.32769 39.65209 69.49722 31.92493 22.67203 39.30180 
348 0.00000 69.27901 60.31739 18.37061 20.16735 8.782788 
349 85.50088 31.10857 88.90517 77.58981 86.92050 62.94321 
350 56.28443 88.15442 14.76310 68.48377 65.71175 12.85902 
351 16.32258 75.82818 10.83848 15.97473 10.46784 21.05768 
352 42.44755 64.76844 0.00000 6.510198 8.640968 7.195600 
353 14.64866 88.86854 52.73823 7.935551 8.048391 15.73327 
354 0.00000 0.00000 0.00000 21.13763 13.42348 21.55497 
355 29.87869 63.04417 54.20615 5.087046 4.887122 8.692660 
356 35.24071 35.95178 28.22156 18.91792 30.80570 31.18919 
357 15.01488 88.15595 74.13138 57.46772 32.71416 12.37192 
358 100.0000 100.0000 0.00000 59.14442 36.85037 22.50386 
359 13.18990 0.00000 48.12848 76.16114 78.77654 20.06370 
360 39.01579 55.79004 100.0000 74.40592 54.90536 71.17450 
361 10.74083 30.91630 47.25566 20.51880 16.17651 7.955143 
362 49.49264 11.72503 0.00000 23.34775 37.47132 20.68124 
363 44.53803 47.11528 70.60655 19.92736 16.32079 48.20166 
364 0.00000 34.13748 42.32242 67.77350 52.09712 45.14454 
365 100.0000 39.60327 70.17166 12.24450 9.660621 30.52410 
366 72.59937 69.40871 29.68338 49.81721 54.12965 42.20437 
367 33.42794 48.47639 11.87610 52.53923 44.08370 77.04217 
368 15.87854 20.84993 14.01694 46.15431 28.60130 39.29610 
369 35.29870 0.00000 0.00000 5.625907 6.580759 6.501187 
370 40.83619 16.73304 85.57565 47.79565 52.18201 11.52411 
371 66.44846 13.68276 28.49012 14.97953 10.38695 13.43928 
372 60.70802 32.84657 100.0000 24.15241 24.04690 50.14217 
373 65.12856 57.38766 0.00000 15.71622 25.04342 24.81406 
374 16.27070 11.96002 24.31678 6.577874 8.281780 6.143829 
375 73.04494 34.26566 87.78363 13.58286 10.52157 8.207439 
376 86.86961 14.82567 26.51865 7.373695 6.096770 7.518185 
377 13.98337 31.78454 69.29885 13.45713 19.87885 32.42326 
378 10.31357 52.24079 72.80537 12.40669 13.53774 7.871447 
379 69.67727 43.00145 65.21553 30.43906 44.26878 17.26854 
380 16.14557 27.52728 100.0000 72.52380 84.16822 60.12892 
381 32.24537 100.0000 43.49737 17.12273 19.35588 31.66370 
382 10.84001 46.92760 0.00000 25.74385 16.52352 14.43432 
383 86.98405 68.66407 44.57618 61.24220 56.35835 12.46725 
384 88.99825 76.45228 12.51240 29.16200 23.19795 54.47419 
385 83.68353 79.09056 84.97292 69.46972 62.73756 12.94063 
386 88.31159 29.34463 39.66583 35.79483 39.64014 10.28896 
387 90.44175 57.00160 33.37301 49.35897 56.30084 26.80057 
388 22.33616 13.24178 10.71641 14.34670 10.57507 27.07859 
389 100.0000 51.58007 88.78004 5.370547 6.946120 7.532530 
390 67.91180 62.48875 51.14061 13.50193 18.99486 37.29770 
391 88.25666 11.85626 45.30251 22.61379 15.67452 17.34320 
392 85.24758 50.38224 57.08400 20.67460 29.74774 10.46639 
393 20.50050 89.80697 85.54513 14.27384 13.05412 48.10385 
394 42.04471 14.72953 67.95605 13.26552 12.56384 40.39175 
395 29.21035 44.10925 52.95338 85.70807 89.78591 105.9995 
396 57.96445 59.23705 65.98154 68.39123 65.67129 12.14317 
397 69.91836 31.02159 31.10094 45.14489 56.91583 93.00023 
398 12.81453 53.33944 93.33791 10.01683 8.281084 7.017453 
399 56.60334 34.45029 0.00000 27.36108 25.79173 67.13823 
400 44.52430 29.09743 86.48508 9.186672 12.51242 19.57969 
401 41.63119 76.35920 100.0000 12.10287 8.904469 9.496856 
402 53.48898 100.0000 13.01747 31.20817 39.54113 10.93412 
403 42.54826 60.22278 27.25566 9.496684 11.81369 23.77506 
404 23.96277 80.73701 42.03861 33.78712 49.55423 26.42482 
405 37.75998 14.33890 24.16724 87.98622 97.04831 64.33671 
406 0.00000 75.71221 87.46777 59.03416 68.39388 82.41220 
