targets/EPSON_ET-2800/CustomET2800Chart.ti1
CTI1   

DESCRIPTOR "Argyll Calibration Target chart information 1"
ORIGINATOR "Argyll targen"
CREATED "Sat Jun  1 12:49:42 2024"
APPROX_WHITE_POINT "95.106486 100.000000 108.844025"
COLOR_REP "iRGB"
TOTAL_INK_LIMIT "300.0"
WHITE_COLOR_PATCHES "4"
BLACK_COLOR_PATCHES "4"
OFPS_PATCHES "954"

NUMBER_OF_FIELDS 7
BEGIN_DATA_FORMAT
SAMPLE_ID RGB_R RGB_G RGB_B XYZ_X XYZ_Y XYZ_Z 
END_DATA_FORMAT

NUMBER_OF_SETS 962
BEGIN_DATA
1 100.0000 100.0000 100.0000 95.10649 100.0000 108.8440 
2 52.34200 71.88333 66.60765 34.64773 42.49331 44.82490 
3 26.31784 20.56682 78.65156 14.92194 8.810509 56.22959 
4 92.07225 7.975267 93.06392 50.28348 25.03129 82.62474 
5 66.44263 0.00000 87.45131 30.47819 14.67371 71.22269 
6 47.60607 62.70286 72.39809 29.91938 33.35675 50.96596 
7 43.57835 68.88424 33.24599 24.42502 35.60472 14.91111 
8 18.03315 14.08647 75.71371 12.27504 6.633696 51.49713 
9 100.0000 62.35817 72.81042 62.84759 50.09900 53.04032 
10 0.00000 0.00000 100.0000 18.87111 8.147314 95.12896 
11 100.0000 0.00000 0.00000 41.83017 22.05217 2.913230 
12 0.00000 100.0000 100.0000 54.27632 78.94783 106.9308 
13 0.00000 100.0000 0.00000 36.40521 71.80052 12.80184 
14 100.0000 0.00000 100.0000 59.70128 29.19948 97.04219 
15 0.00000 50.08781 100.0000 26.47809 23.35914 97.66464 
16 0.00000 51.60265 0.00000 9.114025 17.22578 3.704698 
17 0.00000 0.00000 52.49407 5.250757 2.700034 23.38917 
18 100.0000 0.00000 49.66717 45.60050 23.56006 22.77194 
19 100.0000 54.13066 100.0000 68.70430 47.20301 100.0432 
20 100.0000 51.51058 0.00000 49.91283 38.21523 5.607473 
21 47.03448 0.00000 0.00000 8.660231 4.949640 1.358945 
22 100.0000 100.0000 51.36856 81.29083 94.47461 36.07553 
23 0.00000 100.0000 51.40816 40.46744 73.42515 34.19801 
24 50.22594 100.0000 100.0000 63.10128 83.49801 107.3443 
25 49.56498 100.0000 0.00000 44.98104 76.22225 13.20368 
26 49.32713 0.00000 100.0000 27.35831 12.52334 95.52666 
27 0.00000 46.82328 51.61978 11.67711 15.79440 24.78050 
28 100.0000 52.71107 50.46545 54.22994 40.60494 26.30102 
29 51.10345 50.11000 0.00000 17.77644 20.95045 3.967434 
30 53.91390 0.00000 48.08956 14.80889 7.713140 20.00520 
31 50.48103 47.03434 100.0000 34.43574 26.03059 97.76119 
32 48.47191 100.0000 53.12156 48.94012 77.75902 36.15978 
33 0.00000 24.87114 0.00000 2.783068 4.565637 1.594361 
34 0.00000 0.00000 26.35285 2.009024 1.403546 6.314632 
35 100.0000 27.48917 100.0000 61.87574 33.54781 97.76702 
36 73.63625 0.00000 0.00000 21.47748 11.55825 1.959539 
37 0.00000 74.40618 100.0000 37.04526 44.49053 101.1871 
38 100.0000 100.0000 25.56020 78.18519 93.23255 19.71780 
39 100.0000 74.96167 0.00000 60.30902 59.00471 9.072900 
40 100.0000 0.00000 25.44284 42.77139 22.42860 7.870718 
41 74.17020 0.00000 100.0000 39.68175 18.87735 96.10411 
42 0.00000 25.13925 100.0000 20.69219 11.78896 95.73599 
43 0.00000 100.0000 25.25266 37.33260 72.17142 17.68651 
44 100.0000 0.00000 74.95098 51.15457 25.78134 52.02579 
45 100.0000 26.25899 0.00000 43.81508 26.02144 3.574873 
46 75.57807 100.0000 100.0000 75.98050 90.13858 107.9478 
47 75.31017 100.0000 0.00000 57.93767 82.90273 13.81081 
48 0.00000 100.0000 75.70061 45.93949 75.61363 63.01986 
49 100.0000 100.0000 76.68590 87.04967 96.77778 66.40797 
50 25.29697 100.0000 0.00000 38.53136 72.89677 12.90146 
51 25.90231 100.0000 100.0000 56.50415 80.09651 107.0352 
52 50.69558 56.88811 47.85331 23.51887 27.10104 23.09443 
53 25.36014 0.00000 100.0000 21.00774 9.248970 95.22908 
54 0.00000 75.90219 0.00000 20.00150 38.99768 7.333886 
55 100.0000 77.76370 100.0000 79.76239 69.31609 103.7293 
56 0.00000 0.00000 76.47111 10.75285 4.900524 52.36927 
57 23.39454 0.00000 0.00000 2.824456 1.940695 1.085491 
58 0.00000 69.20000 27.59488 17.56680 32.35953 11.97926 
59 31.42928 66.06530 100.0000 36.10774 37.73672 99.93276 
60 65.30643 73.92943 100.0000 52.46624 52.05703 101.8354 
61 0.00000 69.68493 74.46612 25.89282 36.07653 54.63946 
62 100.0000 26.33098 71.18323 52.13639 29.36674 47.35067 
63 24.76123 0.00000 75.21978 12.43781 5.810182 50.60282 
64 28.55706 0.00000 27.17409 4.779492 2.824656 6.776285 
65 25.39808 27.82733 0.00000 5.371290 6.560977 1.843203 
66 71.77431 100.0000 69.82661 63.70734 84.95665 55.64472 
67 73.30941 100.0000 33.27488 58.29788 82.90135 22.27187 
68 100.0000 75.28710 73.23284 69.34250 62.90529 55.76567 
69 30.92388 71.75391 0.00000 20.94041 36.15493 6.735701 
70 72.77837 29.37154 0.00000 23.43298 16.25341 2.762848 
71 0.00000 28.44319 28.48760 4.507457 6.127783 7.986085 
72 100.0000 74.49718 29.04560 61.28003 58.98512 15.44533 
73 100.0000 28.80178 29.67536 45.49842 27.33940 10.45278 
74 72.66399 70.94184 0.00000 37.21901 43.92533 7.378250 
75 71.23966 0.00000 28.15646 21.17217 11.26763 7.956978 
76 0.00000 29.58079 71.73708 11.97543 9.421187 46.37485 
77 28.94558 100.0000 72.19330 47.76245 76.66443 58.10091 
78 68.95992 0.00000 74.10968 27.78460 13.75858 49.71801 
79 28.36267 100.0000 28.92844 40.29122 73.66350 19.33194 
80 28.77628 30.05470 100.0000 24.22265 14.76921 96.12532 
81 73.31392 27.51351 100.0000 41.32729 22.95868 96.80526 
82 32.15213 27.15970 49.31162 10.27904 8.505265 21.42188 
83 57.21251 33.85366 64.93792 22.81559 16.39250 38.35470 
84 26.21297 0.00000 46.14647 6.499520 3.463307 18.05865 
85 100.0000 51.47706 76.67731 59.71326 42.11655 57.28360 
86 0.00000 23.08250 43.70945 5.407258 5.228454 16.60881 
87 0.00000 48.98003 77.45141 18.28333 19.50781 56.27210 
88 81.97046 0.00000 47.79951 30.51132 15.81463 20.50343 
89 56.58029 30.44875 34.10799 16.81040 12.92116 11.39261 
90 100.0000 77.17737 46.92510 64.89002 62.82836 27.05948 
91 22.36647 77.36630 54.21800 27.06495 43.34483 31.70896 
92 48.66798 23.28582 0.00000 10.81217 8.385983 1.908921 
93 50.70022 23.65279 100.0000 29.49360 16.02293 96.08972 
94 30.78463 49.68148 28.52471 12.80775 18.04399 9.865307 
95 50.26664 71.84775 78.08065 36.86799 43.25785 60.84061 
96 0.00000 78.38387 52.85764 25.73658 43.56319 30.53477 
97 20.71982 52.35914 100.0000 28.69058 25.63886 97.98817 
98 19.27005 100.0000 51.81697 41.79849 74.10331 34.62784 
99 73.57545 51.77199 27.39163 30.70144 28.31615 10.42189 
100 46.52875 78.38981 25.89170 29.88382 46.09308 13.29096 
101 47.43336 76.71953 0.00000 28.26318 43.94179 7.853115 
102 77.31623 52.74141 100.0000 50.21662 36.93575 99.03506 
103 52.51850 0.00000 81.64547 22.01775 10.53023 60.95388 
104 100.0000 53.89903 20.92166 51.39373 40.14597 9.279659 
105 46.13263 100.0000 24.62267 44.63607 75.94231 17.79412 
106 0.00000 38.16112 0.00000 5.260779 9.520367 2.420272 
107 0.00000 43.04006 23.04713 7.269873 12.29704 6.917114 
108 77.27559 55.40143 0.00000 33.28119 31.69943 5.225693 
109 100.0000 22.16522 49.79811 47.04730 26.41885 23.36035 
110 33.44036 55.85352 69.07251 22.14568 25.31067 45.32440 
111 73.95655 100.0000 51.95113 61.23804 84.12371 35.66013 
112 53.54362 84.63971 100.0000 53.27945 61.90708 103.6939 
113 45.82064 0.00000 23.60075 9.054596 5.059020 5.617821 
114 23.00353 45.06021 0.00000 8.824785 14.02678 3.102432 
115 0.00000 0.00000 13.39671 1.288186 1.115256 2.517904 
116 77.05336 57.02963 63.24774 40.14746 35.41892 39.10250 
117 100.0000 41.03581 100.0000 64.66664 39.12881 98.69732 
118 50.17934 100.0000 85.13684 57.62548 81.30599 78.59510 
119 0.00000 87.32615 100.0000 44.91285 60.22352 103.8096 
120 100.0000 100.0000 38.72022 79.45274 93.73949 26.39412 
121 84.35481 16.52037 0.00000 29.60052 16.96975 2.576290 
122 73.31562 73.93345 46.66288 42.49229 48.60348 25.28409 
123 100.0000 16.46015 16.57830 43.06765 23.85701 5.391304 
124 60.16427 0.00000 0.00000 14.08474 7.746535 1.613128 
125 83.06291 84.12188 0.00000 51.76366 62.69801 10.23588 
126 0.00000 82.74412 16.59686 24.48204 47.28640 10.89716 
127 84.01979 83.28211 100.0000 69.80094 69.13737 104.2194 
128 0.00000 100.0000 37.84348 38.51852 72.64571 23.93284 
129 82.49285 100.0000 84.70509 75.09168 90.32798 78.67520 
130 77.96156 35.28982 50.38817 31.77578 21.78917 23.78391 
131 86.57497 0.00000 0.00000 30.45202 16.18556 2.380070 
132 100.0000 0.00000 38.62143 44.03566 22.93422 14.52976 
133 84.42322 100.0000 19.31059 64.78625 86.36980 17.02350 
134 50.62659 65.76479 100.0000 41.65809 40.39048 100.1527 
135 100.0000 13.36077 0.00000 42.39850 23.18868 3.102677 
136 35.24449 25.63568 74.20731 16.17394 10.57797 49.85598 
137 19.09533 88.16990 100.0000 46.72400 62.00585 104.0583 
138 23.82531 23.21243 20.90448 5.091876 5.347966 4.995996 
139 15.70381 15.66825 0.00000 2.617828 2.946846 1.290590 
140 0.00000 100.0000 64.39725 43.05870 74.46149 47.84647 
141 16.39755 86.68583 0.00000 27.55052 52.70177 9.581581 
142 83.99310 0.00000 85.37905 41.00148 20.17990 68.08970 
143 84.85478 16.72764 100.0000 47.86274 24.34654 96.72895 
144 100.0000 87.23770 0.00000 67.81240 74.00936 11.57405 
145 0.00000 59.01595 50.20231 15.73453 24.29185 24.94949 
146 86.88624 0.00000 100.0000 48.56266 23.45637 96.52025 
147 100.0000 84.28898 87.22192 78.98302 75.37525 79.97642 
148 100.0000 18.87845 87.45855 56.07217 29.43127 72.73626 
149 0.00000 17.88195 84.83129 14.26468 7.827810 66.17014 
150 15.47548 14.66150 100.0000 20.38392 9.917211 95.39092 
151 75.22418 79.47664 78.64106 53.92742 58.35275 63.72203 
152 100.0000 0.00000 63.08430 48.18765 24.59476 36.39872 
153 25.15918 68.06140 24.09615 18.85047 32.22104 10.52102 
154 26.63596 77.85021 77.30791 33.45948 46.42763 60.45095 
155 0.00000 11.97399 0.00000 1.473154 1.946175 1.157719 
156 0.00000 0.00000 39.46682 3.308271 1.923163 13.15790 
157 0.00000 34.42880 85.18465 16.86706 12.84642 67.60951 
158 31.65984 12.84698 0.00000 4.868854 3.784171 1.333660 
159 100.0000 68.01272 85.83312 69.35081 56.85953 74.46495 
160 18.81111 100.0000 13.85802 37.91590 72.54411 14.46668 
161 75.84009 28.74604 73.34952 34.13665 20.58781 49.61665 
162 0.00000 12.56013 100.0000 19.38325 9.171457 95.29968 
163 70.83499 100.0000 13.73006 55.48646 81.60411 15.26483 
164 70.83578 80.38716 22.93245 42.16113 54.20826 13.13044 
165 100.0000 13.73519 100.0000 60.29707 30.39089 97.24079 
166 80.21882 28.25702 19.36965 28.66113 18.60811 5.862784 
167 87.62671 100.0000 100.0000 84.54221 94.55303 108.3490 
168 0.00000 87.42281 82.78716 38.76153 57.86757 71.08866 
169 15.98253 0.00000 16.76016 2.322723 1.632612 3.290952 
170 18.41927 100.0000 87.76819 50.85998 77.71560 82.88514 
171 14.07858 41.09545 100.0000 24.56864 18.47684 96.82278 
172 0.00000 66.08881 13.18112 15.24049 29.02850 7.130092 
173 47.82422 79.27188 57.98153 35.16460 49.08834 36.16801 
174 87.24153 100.0000 0.00000 66.37153 87.25125 14.20600 
175 54.42589 56.35967 22.11595 22.05461 26.36473 8.542776 
176 100.0000 32.00861 14.03775 45.10159 28.09462 5.544075 
177 85.29554 100.0000 68.93078 72.62119 89.57873 54.88594 
178 88.31838 33.15679 0.00000 34.98949 23.24650 3.504057 
179 0.00000 37.30204 100.0000 22.93344 16.27085 96.48308 
180 15.75743 0.00000 33.23976 3.487445 2.095841 9.542393 
181 0.00000 43.28720 36.21836 8.489650 12.89265 13.00940 
182 0.00000 88.17862 0.00000 27.61941 54.23137 9.873211 
183 15.07238 0.00000 84.92575 14.15108 6.352984 66.05356 
184 100.0000 35.31799 56.59152 50.46267 31.30380 30.49671 
185 86.63123 0.00000 18.94795 31.02995 16.42169 5.198527 
186 100.0000 100.0000 88.68081 90.84529 98.29579 86.39988 
187 45.40725 0.00000 61.91642 14.20382 7.102282 33.46611 
188 35.44605 0.00000 86.30287 18.01168 8.290780 68.61482 
189 66.72525 86.80942 0.00000 43.14000 60.86219 10.33571 
190 0.00000 14.12306 69.67664 9.549032 5.418986 42.94488 
191 100.0000 84.67314 60.67393 71.95561 72.96089 41.74057 
192 13.21802 62.40602 100.0000 31.81287 33.07208 99.25855 
193 100.0000 68.27524 59.16981 62.35669 54.26682 36.99551 
194 42.66217 37.40642 18.28466 11.80499 12.57752 5.289954 
195 0.00000 83.86119 31.36744 26.20257 49.10537 16.47171 
196 100.0000 83.22398 15.65893 65.57287 68.92616 12.69266 
197 35.99654 100.0000 14.21151 41.07327 74.17050 14.68538 
198 32.23387 85.51394 0.00000 29.30024 52.45451 9.441698 
199 11.56488 0.00000 0.00000 1.515493 1.265790 1.024155 
200 19.21335 52.57761 47.02185 14.05515 19.88522 21.52514 
201 100.0000 62.64213 0.00000 54.23123 46.85083 7.046953 
202 32.74791 16.21746 100.0000 23.24467 11.58557 95.56230 
203 15.17994 0.00000 64.64427 8.527578 4.105114 36.38092 
204 57.49551 54.29016 76.42705 31.64574 29.12190 55.87836 
205 38.67386 0.00000 36.54949 8.018307 4.391373 11.58686 
206 36.65430 87.78019 100.0000 49.73604 63.16563 104.1235 
207 87.67211 68.76448 100.0000 64.41772 54.25711 101.6306 
208 61.32539 0.00000 100.0000 32.51804 15.18371 95.76843 
209 0.00000 62.21464 100.0000 31.08628 32.57424 99.20072 
210 0.00000 15.93272 14.38260 2.098005 2.674818 2.972427 
211 68.73558 12.38746 0.00000 19.06532 11.05729 1.989883 
212 68.72612 17.56510 53.54769 23.91914 13.67097 25.50772 
213 61.90848 100.0000 0.00000 50.33967 78.98517 13.45478 
214 37.80296 100.0000 0.00000 41.22266 74.28441 13.02757 
215 65.50679 100.0000 85.86442 64.84554 85.00086 80.18885 
216 11.99259 61.09034 0.00000 13.28110 24.74689 4.937018 
217 62.86844 100.0000 100.0000 68.69179 86.38050 107.6063 
218 0.00000 56.89827 66.39683 18.15814 23.92184 41.84534 
219 70.56738 86.63785 100.0000 63.07490 68.90371 104.5286 
220 44.11144 100.0000 69.22931 50.89337 78.36715 54.25768 
221 12.83179 0.00000 100.0000 19.48327 8.462947 95.15764 
222 0.00000 61.77044 84.63698 25.27308 29.94308 69.52648 
223 100.0000 0.00000 87.61375 55.07294 27.34844 72.66425 
224 20.22803 39.25689 64.17000 13.50450 13.39486 37.34384 
225 100.0000 64.77554 43.07339 57.96136 49.86615 21.99538 
226 87.00811 68.73057 0.00000 46.01423 46.81051 7.471946 
227 12.70023 100.0000 100.0000 54.87799 79.25806 106.9590 
228 100.0000 14.95341 32.44634 44.05643 24.04702 11.23293 
229 55.79390 0.00000 33.51489 13.73287 7.375218 10.16681 
230 44.55608 39.22515 0.00000 12.33562 13.54436 2.824400 
231 100.0000 0.00000 12.79179 42.09671 22.15877 4.317118 
232 38.49552 43.85921 82.53319 23.29813 19.64637 64.10430 
233 100.0000 34.87626 84.74711 57.64700 34.02760 68.79831 
234 66.76325 14.34650 100.0000 35.97894 17.92134 96.11459 
235 87.69905 0.00000 60.46493 37.11260 18.95004 32.91867 
236 0.00000 82.81050 69.66155 32.02438 50.36951 50.41790 
237 37.05092 65.68107 42.86772 22.13882 32.01760 20.28925 
238 46.99170 20.26195 57.00573 14.93453 9.378869 28.55804 
239 34.66887 100.0000 85.50355 52.96172 78.88736 79.00757 
240 32.53695 0.00000 13.58820 4.824385 2.937715 2.720452 
241 0.00000 14.71388 26.98980 2.729280 2.765300 6.796992 
242 100.0000 89.36638 100.0000 87.13791 84.06508 106.1878 
243 54.87974 20.36769 79.49717 23.55072 13.19692 57.94436 
244 36.12891 52.99834 0.00000 13.98068 20.45356 4.071436 
245 44.00105 37.65520 43.64701 14.64168 13.85228 17.74138 
246 12.66528 100.0000 0.00000 37.00411 72.10931 12.82990 
247 80.84062 49.65820 79.50315 44.34795 33.20089 60.71978 
248 14.24837 100.0000 40.76882 39.60905 73.16651 25.85609 
249 86.36605 100.0000 37.68584 67.79201 87.74134 25.20850 
250 60.98406 100.0000 59.36038 55.44572 80.97473 42.72004 
251 19.83862 35.65144 33.51299 7.669214 9.734769 10.94063 
252 62.04808 57.09120 100.0000 42.98823 35.59151 99.15628 
253 19.35059 18.51526 58.12746 8.595419 5.808294 29.36603 
254 85.79703 0.00000 35.40106 31.69702 16.61481 12.03682 
255 79.72569 54.31075 47.22282 37.91514 33.10100 22.98127 
256 32.51483 43.62579 100.0000 28.04995 21.27209 97.17899 
257 100.0000 100.0000 63.90202 83.77629 95.46864 49.16674 
258 100.0000 100.0000 12.65428 77.49713 92.95737 16.09376 
259 100.0000 87.13314 32.38589 69.27215 74.48079 19.60930 
260 62.08665 40.50377 17.77516 20.32843 18.07943 5.770170 
261 17.78599 38.28798 16.90870 6.811338 10.31384 4.766290 
262 39.18343 17.46339 34.59185 8.858369 6.201830 10.77829 
263 15.27777 100.0000 63.18181 43.61122 74.77810 46.44044 
264 60.86756 0.00000 16.81263 14.85302 8.092993 3.890729 
265 0.00000 41.81378 67.64266 13.58609 14.29959 41.79985 
266 61.40048 84.76841 41.58477 41.61432 57.78496 23.33667 
267 70.82611 0.00000 57.45672 24.95209 12.75102 29.14559 
268 17.53571 40.58765 84.37452 19.07439 16.11226 66.73536 
269 55.91445 63.64035 0.00000 24.98511 32.42515 5.802717 
270 68.40965 43.35502 100.0000 41.83156 28.26735 97.80343 
271 100.0000 50.84999 35.59250 51.54929 38.51303 15.32687 
272 0.00000 0.00000 0.00000 1.000000 1.000000 1.000000 
273 76.33192 19.34304 39.94504 26.66020 15.59051 14.87737 
274 34.37113 87.67802 40.67843 33.69110 56.57259 22.90399 
275 43.91011 43.72508 57.86986 18.55263 17.87486 30.90108 
276 65.63591 44.18323 0.00000 22.66566 20.79338 3.679608 
277 100.0000 39.01584 0.00000 46.29388 30.97835 4.401147 
278 82.99597 76.76159 58.41085 52.63226 55.92127 37.01846 
279 63.91780 70.77601 61.76042 38.27434 43.64166 39.07419 
280 65.21508 42.07098 36.65597 23.84322 20.31810 13.89042 
281 0.00000 100.0000 12.53926 36.66300 71.90362 14.15966 
282 85.71271 35.74945 100.0000 51.38313 30.42800 97.71743 
283 100.0000 15.90415 61.54556 48.62062 25.99966 34.88055 
284 19.57496 16.58320 40.08484 5.513246 4.282788 13.90026 
285 17.67221 61.06031 82.09956 25.23360 29.56780 65.20263 
286 100.0000 51.56668 62.55931 56.17324 40.74956 38.48746 
287 55.62353 16.97210 18.42735 13.39049 8.614163 4.479348 
288 45.47258 100.0000 37.88561 45.64842 76.32134 24.29269 
289 0.00000 100.0000 88.29223 49.88074 77.18988 83.77887 
290 0.00000 30.22393 14.22204 3.951794 6.391914 3.559404 
291 12.65715 31.35811 0.00000 4.435791 6.982733 1.973885 
292 21.32451 67.57397 63.57624 23.65914 33.70012 40.02484 
293 0.00000 34.96455 55.72305 9.391171 10.03533 27.68180 
294 84.10428 65.54071 22.43592 43.03223 42.92659 10.74012 
295 100.0000 65.67592 14.43774 55.92562 49.71476 9.228888 
296 81.30867 67.35142 81.58655 52.40602 47.80695 66.45282 
297 100.0000 65.78849 100.0000 73.52127 56.83560 101.6489 
298 38.96977 66.94953 15.95247 20.89199 32.53253 8.087520 
299 36.75004 64.01744 80.01049 29.34560 33.67532 62.40396 
300 16.84146 69.47543 39.93214 19.94804 33.64515 18.70750 
301 16.77554 59.64873 18.60136 13.62746 23.97456 7.478574 
302 37.83576 0.00000 100.0000 23.69732 10.63573 95.35511 
303 45.68969 63.60365 60.69913 26.86292 32.69362 36.37071 
304 18.19394 23.61132 87.64931 16.99878 10.10632 71.40495 
305 86.60535 36.39597 65.44700 41.23019 26.67241 39.98862 
306 0.00000 0.00000 64.77426 7.739950 3.695555 36.50001 
307 58.42384 84.42508 70.35576 45.49567 58.81880 52.26571 
308 41.93818 83.61585 83.34772 42.44244 56.04378 71.47796 
309 57.58709 38.78275 83.02214 29.02298 20.63379 64.80539 
310 60.41341 100.0000 41.88572 52.22699 79.65551 27.20761 
311 83.63835 41.78251 32.15686 34.91435 25.96809 11.93862 
312 56.85148 68.72557 37.31782 29.83445 38.22712 17.42668 
313 81.29059 75.45016 32.96975 46.89343 52.30529 16.80731 
314 63.96176 47.21078 56.95182 27.74856 24.14209 30.67769 
315 70.46531 86.41441 62.59829 51.24514 63.92785 43.26609 
316 60.07342 28.98958 47.35141 19.86235 13.92275 20.33408 
317 89.25833 44.57164 16.71344 38.89848 29.27661 6.689408 
318 16.90221 89.37560 26.59438 30.46106 56.80005 15.60604 
319 0.00000 0.00000 88.13487 14.42134 6.367687 71.69157 
320 68.14856 0.00000 42.15480 20.88674 10.94676 15.78322 
321 68.22082 56.57074 13.47796 28.47777 29.84549 6.647288 
322 89.19608 15.15890 71.41955 41.58371 22.00624 46.80861 
323 15.01577 54.18811 34.87521 12.60834 20.17158 13.43398 
324 56.07754 15.31851 45.27121 16.02415 9.458273 18.03606 
325 14.09574 75.61792 90.82186 34.92535 44.79523 82.97298 
326 84.54098 24.07018 58.72777 36.01792 20.90904 31.47114 
327 0.00000 55.94395 36.79729 12.66706 21.14257 14.72179 
328 59.10297 12.29282 68.47196 21.69972 11.52452 41.90367 
329 83.08440 86.65727 47.20579 56.81589 67.37198 28.58736 
330 0.00000 63.92146 0.00000 13.96720 26.93077 5.322436 
331 38.37171 100.0000 100.0000 59.24702 81.51074 107.1637 
332 58.67790 70.64924 17.23517 30.02475 39.94181 9.343087 
333 41.90402 32.92229 100.0000 27.99221 17.50314 96.45452 
334 36.33543 86.75863 60.66584 36.92880 56.93469 40.48286 
335 0.00000 12.27955 52.97565 5.829219 3.720483 24.00239 
336 37.16347 50.38776 43.97208 16.25709 19.96726 19.07556 
337 35.18891 12.95811 50.93211 9.669553 5.810465 22.34342 
338 72.48792 14.40160 14.33499 21.74182 12.61664 3.847092 
339 89.49044 83.94656 71.47704 64.95108 68.36083 54.60445 
340 62.46201 85.78178 85.19692 52.65742 63.32038 75.48860 
341 100.0000 41.75538 43.45880 49.81279 33.48620 19.54161 
342 34.34169 83.95156 17.49288 29.23310 50.86600 11.55804 
343 42.81471 23.00768 13.66689 9.095505 7.412781 3.374677 
344 77.58575 11.59038 86.56291 37.35200 18.91841 70.10473 
345 70.28437 69.03214 81.74288 46.16128 45.79722 66.64884 
346 53.33288 42.03085 26.23520 17.27635 17.02948 8.480022 
347 35.32819 39.65236 69.49751 17.68011 15.54330 44.23374 
348 0.00000 69.27975 60.31760 22.25965 34.29980 36.50144 
349 85.50152 31.10808 88.90452 46.11384 26.82063 75.36645 
350 56.28406 88.15382 14.76268 39.24845 60.16284 12.19201 
351 16.32310 75.82889 10.83880 21.09393 39.47653 8.434439 
352 42.44713 64.76838 0.00000 20.50196 30.86842 5.738342 
353 14.64926 88.86870 52.73857 33.15442 57.29064 32.68327 
354 0.00000 0.00000 0.00000 1.000000 1.000000 1.000000 
355 29.87933 63.04480 54.20616 21.10187 29.50409 29.33998 
356 35.24139 35.95210 28.22187 10.08021 11.13062 8.542923 
357 15.01423 88.15551 74.13197 37.50372 58.25201 57.82668 
358 100.0000 100.0000 0.00000 77.23538 92.85269 14.71507 
359 13.18959 0.00000 48.12852 5.164092 2.739543 19.58532 
360 39.01560 55.78934 100.0000 33.63450 30.03033 98.57546 
361 10.74135 30.91705 47.25504 7.601230 8.103182 19.77856 
362 49.49336 11.72513 0.00000 10.00623 6.322095 1.552977 
363 44.53834 47.11570 70.60610 22.64386 21.11046 46.52747 
364 0.00000 34.13683 42.32262 7.054177 8.825841 16.22022 
365 100.0000 39.60270 70.17122 54.48611 34.48275 46.84722 
366 72.59967 69.40798 29.68312 37.68489 42.86587 13.86492 
367 33.42737 48.47600 11.87628 12.05462 17.19243 4.778723 
368 15.87778 20.84941 14.01642 3.464657 4.116594 3.104273 
369 35.29922 0.00000 0.00000 5.175800 3.153056 1.195671 
370 40.83578 16.73286 85.57562 20.06843 10.63099 67.68948 
371 66.44820 13.68339 28.48970 19.06495 11.05647 8.171666 
372 60.70841 32.84678 100.0000 35.33799 21.26874 96.79450 
373 65.12869 57.38737 0.00000 26.81437 29.49032 5.139866 
374 16.27053 11.96036 24.31642 3.258167 2.765622 5.736108 
375 73.04534 34.26637 87.78397 37.81822 23.49834 73.13482 
376 86.86972 14.82619 26.51808 32.38057 18.07116 7.998447 
377 13.98346 31.78491 69.29895 12.45437 10.32960 43.24060 
378 10.31431 52.24110 72.80473 18.50139 21.38086 49.82453 
379 69.67690 43.00192 65.21512 31.42983 24.03697 39.71313 
380 16.14535 27.52792 100.0000 21.96383 12.97820 95.89857 
381 32.24492 100.0000 43.49665 42.70592 74.72113 27.90301 
382 10.83943 46.92699 0.00000 8.074327 14.45737 3.225073 
383 86.98410 68.66451 44.57550 48.95162 47.93113 23.20072 
384 88.99852 76.45219 12.51248 51.91491 55.88209 10.25893 
385 83.68287 79.09030 84.97339 61.47653 61.67655 74.32193 
386 88.31182 29.34403 39.66635 36.61549 22.77353 15.55767 
387 90.44156 57.00086 33.37273 45.21381 38.56594 14.45441 
388 22.33655 13.24109 10.71580 3.427551 3.059251 2.316147 
389 100.0000 51.57977 88.77979 63.58066 43.71919 77.48108 
390 67.91233 62.48814 51.14102 34.45150 36.08809 27.06858 
391 88.25626 11.85572 45.30289 35.31846 19.02774 18.89131 
392 85.24689 50.38274 57.08340 42.25020 33.11241 31.78025 
393 20.50036 89.80745 85.54437 42.70736 62.22816 76.40269 
394 42.04506 14.72939 67.95639 15.19693 8.450875 40.98765 
395 29.21031 44.10922 52.95277 13.95418 15.76987 25.87900 
396 57.96418 59.23745 65.98123 31.04391 31.95295 42.20119 
397 69.91902 31.02090 31.10020 23.42835 16.52058 10.19796 
398 12.81381 53.34006 93.33761 25.61118 24.86239 84.42297 
399 56.60382 34.45033 0.00000 15.88893 13.78628 2.683952 
400 44.52475 29.09798 86.48452 23.10944 14.53001 69.86980 
401 41.63124 76.35981 100.0000 44.03358 49.70360 101.8253 
402 53.48898 100.0000 13.01822 46.79612 77.12635 14.72183 
403 42.54899 60.22228 27.25530 19.63255 27.35705 10.76307 
404 23.96207 80.73652 42.03819 27.37277 46.68109 22.25783 
