targets/EPSON_ET-2800/CustomET2800Chart.ti2
CTI2   

DESCRIPTOR "Argyll Calibration Target chart information 2"
ORIGINATOR "Argyll printtarg"
CREATED "Sat Jun  1 12:49:43 2024"
TARGET_INSTRUMENT "GretagMacbeth SpectroScan"
APPROX_WHITE_POINT "95.106486 100.000000 108.844025"
TOTAL_INK_LIMIT "300.0"
COLOR_REP "iRGB"
PAPER_SIZE "215.9x279.4"
RANDOM_START "155"
STEPS_IN_PASS "37"
PASSES_IN_STRIPS2 "26"
STRIP_INDEX_PATTERN "A-Z, A-Z"
PATCH_INDEX_PATTERN "0-9,@-9,@-9;1-999"
INDEX_ORDER "STRIP_THEN_PATCH"

NUMBER_OF_FIELDS 8
BEGIN_DATA_FORMAT
SAMPLE_ID SAMPLE_LOC RGB_R RGB_G RGB_B XYZ_X XYZ_Y XYZ_Z 
END_DATA_FORMAT

NUMBER_OF_SETS 962
BEGIN_DATA
1 "Y26" 100.0000 100.0000 100.0000 95.10649 100.0000 108.8440 
2 "Y27" 52.34150 71.88373 66.60716 34.64773 42.49331 44.82490 
3 "X34" 26.31724 20.56611 78.65110 14.92194 8.810509 56.22959 
4 "Y28" 92.07294 7.975891 93.06325 50.28348 25.03129 82.62474 
5 "X6" 66.44236 0.00000 87.45098 30.47819 14.67371 71.22269 
6 "X35" 47.60662 62.70237 72.39796 29.91938 33.35675 50.96596 
7 "I8" 43.57824 68.88380 33.24636 24.42502 35.60472 14.91111 
8 "Y29" 18.03311 14.08713 75.71374 12.27504 6.633696 51.49713 
9 "H15" 100.0000 62.35752 72.80995 62.84759 50.09900 53.04032 
10 "X7" 0.00000 0.00000 100.0000 18.87111 8.147314 95.12896 
11 "B23" 100.0000 0.00000 0.00000 41.83017 22.05217 2.913230 
12 "X36" 0.00000 100.0000 100.0000 54.27632 78.94783 106.9308 
13 "I33" 0.00000 100.0000 0.00000 36.40521 71.80052 12.80184 
14 "I9" 100.0000 0.00000 100.0000 59.70128 29.19948 97.04219 
15 "W14" 0.00000 50.08774 100.0000 26.47809 23.35914 97.66464 
16 "Y30" 0.00000 51.60296 0.00000 9.114025 17.22578 3.704698 
17 "V21" 0.00000 0.00000 52.49409 5.250757 2.700034 23.38917 
18 "H16" 100.0000 0.00000 49.66659 45.60050 23.56006 22.77194 
19 "N21" 100.0000 54.13138 100.0000 68.70430 47.20301 100.0432 
20 "X8" 100.0000 51.50988 0.00000 49.91283 38.21523 5.607473 
21 "R9" 47.03441 0.00000 0.00000 8.660231 4.949640 1.358945 
22 "B24" 100.0000 100.0000 51.36797 81.29083 94.47461 36.07553 
23 "I2" 0.00000 100.0000 51.40764 40.46744 73.42515 34.19801 
24 "X37" 50.22660 100.0000 100.0000 63.10128 83.49801 107.3443 
25 "T29" 49.56435 100.0000 0.00000 44.98104 76.22225 13.20368 
26 "I34" 49.32784 0.00000 100.0000 27.35831 12.52334 95.52666 
27 "G22" 0.00000 46.82383 51.61975 11.67711 15.79440 24.78050 
28 "I10" 100.0000 52.71077 50.46616 54.22994 40.60494 26.30102 
29 "A30" 51.10399 50.11063 0.00000 17.77644 20.95045 3.967434 
30 "W15" 53.91318 0.00000 48.08881 14.80889 7.713140 20.00520 
31 "Y17" 50.48142 47.03441 100.0000 34.43574 26.03059 97.76119 
32 "Y31" 48.47181 100.0000 53.12123 48.94012 77.75902 36.15978 
33 "X25" 0.00000 24.87068 0.00000 2.783068 4.565637 1.594361 
34 "V22" 0.00000 0.00000 26.35233 2.009024 1.403546 6.314632 
35 "R32" 100.0000 27.48913 100.0000 61.87574 33.54781 97.76702 
36 "H17" 73.63699 0.00000 0.00000 21.47748 11.55825 1.959539 
37 "E24" 0.00000 74.40604 100.0000 37.04526 44.49053 101.1871 
38 "N22" 100.0000 100.0000 25.56039 78.18519 93.23255 19.71780 
39 "Z36" 100.0000 74.96147 0.00000 60.30902 59.00471 9.072900 
40 "X9" 100.0000 0.00000 25.44289 42.77139 22.42860 7.870718 
41 "G37" 74.16953 0.00000 100.0000 39.68175 18.87735 96.10411 
42 "R10" 0.00000 25.13924 100.0000 20.69219 11.78896 95.73599 
43 "S36" 0.00000 100.0000 25.25216 37.33260 72.17142 17.68651 
44 "B25" 100.0000 0.00000 74.95079 51.15457 25.78134 52.02579 
45 "F29" 100.0000 26.25925 0.00000 43.81508 26.02144 3.574873 
46 "I3" 75.57794 100.0000 100.0000 75.98050 90.13858 107.9478 
47 "Z31" 75.31090 100.0000 0.00000 57.93767 82.90273 13.81081 
48 "Y1" 0.00000 100.0000 75.70001 45.93949 75.61363 63.01986 
49 "L1" 100.0000 100.0000 76.68574 87.04967 96.77778 66.40797 
50 "T30" 25.29641 100.0000 0.00000 38.53136 72.89677 12.90146 
51 "U29" 25.90219 100.0000 100.0000 56.50415 80.09651 107.0352 
52 "I35" 50.69505 56.88869 47.85382 23.51887 27.10104 23.09443 
53 "M31" 25.36049 0.00000 100.0000 21.00774 9.248970 95.22908 
54 "G23" 0.00000 75.90295 0.00000 20.00150 38.99768 7.333886 
55 "M6" 100.0000 77.76303 100.0000 79.76239 69.31609 103.7293 
56 "I11" 0.00000 0.00000 76.47059 10.75285 4.900524 52.36927 
57 "H9" 23.39513 0.00000 0.00000 2.824456 1.940695 1.085491 
58 "A31" 0.00000 69.19966 27.59442 17.56680 32.35953 11.97926 
59 "U9" 31.42901 66.06546 100.0000 36.10774 37.73672 99.93276 
60 "W16" 65.30709 73.92996 100.0000 52.46624 52.05703 101.8354 
61 "C21" 0.00000 69.68490 74.46555 25.89282 36.07653 54.63946 
62 "Y18" 100.0000 26.33097 71.18334 52.13639 29.36674 47.35067 
63 "Q18" 24.76081 0.00000 75.21935 12.43781 5.810182 50.60282 
64 "Y32" 28.55726 0.00000 27.17479 4.779492 2.824656 6.776285 
65 "P25" 25.39864 27.82788 0.00000 5.371290 6.560977 1.843203 
66 "X26" 71.77386 100.0000 69.82681 63.70734 84.95665 55.64472 
67 "P14" 73.30892 100.0000 33.27535 58.29788 82.90135 22.27187 
68 "V23" 100.0000 75.28649 73.23262 69.34250 62.90529 55.76567 
69 "E16" 30.92393 71.75402 0.00000 20.94041 36.15493 6.735701 
70 "R33" 72.77790 29.37209 0.00000 23.43298 16.25341 2.762848 
71 "B30" 0.00000 28.44282 28.48707 4.507457 6.127783 7.986085 
72 "H18" 100.0000 74.49760 29.04555 61.28003 58.98512 15.44533 
73 "I17" 100.0000 28.80140 29.67575 45.49842 27.33940 10.45278 
74 "E25" 72.66346 70.94224 0.00000 37.21901 43.92533 7.378250 
75 "G16" 71.23980 0.00000 28.15595 21.17217 11.26763 7.956978 
76 "N23" 0.00000 29.58114 71.73724 11.97543 9.421187 46.37485 
77 "T15" 28.94484 100.0000 72.19348 47.76245 76.66443 58.10091 
78 "Z37" 68.96010 0.00000 74.11002 27.78460 13.75858 49.71801 
79 "D4" 28.36194 100.0000 28.92805 40.29122 73.66350 19.33194 
80 "X10" 28.77699 30.05417 100.0000 24.22265 14.76921 96.12532 
81 "S18" 73.31350 27.51354 100.0000 41.32729 22.95868 96.80526 
82 "H1" 32.15229 27.15953 49.31106 10.27904 8.505265 21.42188 
83 "K9" 57.21218 33.85367 64.93782 22.81559 16.39250 38.35470 
84 "R11" 26.21347 0.00000 46.14633 6.499520 3.463307 18.05865 
85 "T37" 100.0000 51.47631 76.67659 59.71326 42.11655 57.28360 
86 "S37" 0.00000 23.08232 43.70947 5.407258 5.228454 16.60881 
87 "L18" 0.00000 48.97993 77.45174 18.28333 19.50781 56.27210 
88 "B26" 81.96994 0.00000 47.79889 30.51132 15.81463 20.50343 
89 "L14" 56.58045 30.44938 34.10849 16.81040 12.92116 11.39261 
90 "F30" 100.0000 77.17708 46.92454 64.89002 62.82836 27.05948 
91 "E31" 22.36667 77.36629 54.21836 27.06495 43.34483 31.70896 
92 "I4" 48.66865 23.28527 0.00000 10.81217 8.385983 1.908921 
93 "H35" 50.69963 23.65301 100.0000 29.49360 16.02293 96.08972 
94 "Z32" 30.78508 49.68185 28.52522 12.80775 18.04399 9.865307 
95 "M2" 50.26627 71.84710 78.08042 36.86799 43.25785 60.84061 
96 "Y2" 0.00000 78.38407 52.85725 25.73658 43.56319 30.53477 
97 "Q29" 20.72023 52.35981 100.0000 28.69058 25.63886 97.98817 
98 "L2" 19.27062 100.0000 51.81659 41.79849 74.10331 34.62784 
99 "W34" 73.57595 51.77234 27.39147 30.70144 28.31615 10.42189 
100 "T31" 46.52934 78.39017 25.89151 29.88382 46.09308 13.29096 
101 "R3" 47.43267 76.71931 0.00000 28.26318 43.94179 7.853115 
102 "U30" 77.31594 52.74128 100.0000 50.21662 36.93575 99.03506 
103 "F34" 52.51850 0.00000 81.64492 22.01775 10.53023 60.95388 
104 "I36" 100.0000 53.89944 20.92164 51.39373 40.14597 9.279659 
105 "Z7" 46.13260 100.0000 24.62196 44.63607 75.94231 17.79412 
106 "M32" 0.00000 38.16129 0.00000 5.260779 9.520367 2.420272 
107 "A22" 0.00000 43.03960 23.04723 7.269873 12.29704 6.917114 
108 "G24" 77.27626 55.40093 0.00000 33.28119 31.69943 5.225693 
109 "M14" 100.0000 22.16526 49.79782 47.04730 26.41885 23.36035 
110 "M7" 33.44015 55.85412 69.07301 22.14568 25.31067 45.32440 
111 "D31" 73.95590 100.0000 51.95087 61.23804 84.12371 35.66013 
112 "I12" 53.54391 84.64027 100.0000 53.27945 61.90708 103.6939 
113 "Z2" 45.82132 0.00000 23.60113 9.054596 5.059020 5.617821 
114 "H10" 23.00298 45.05989 0.00000 8.824785 14.02678 3.102432 
115 "G32" 0.00000 0.00000 13.39742 1.288186 1.115256 2.517904 
116 "A32" 77.05348 57.02907 63.24712 40.14746 35.41892 39.10250 
117 "B5" 100.0000 41.03609 100.0000 64.66664 39.12881 98.69732 
118 "U10" 50.17929 100.0000 85.13619 57.62548 81.30599 78.59510 
119 "E35" 0.00000 87.32586 100.0000 44.91285 60.22352 103.8096 
120 "W17" 100.0000 100.0000 38.71977 79.45274 93.73949 26.39412 
121 "W28" 84.35492 16.52094 0.00000 29.60052 16.96975 2.576290 
122 "C22" 73.31502 73.93301 46.66361 42.49229 48.60348 25.28409 
123 "G8" 100.0000 16.45991 16.57893 43.06765 23.85701 5.391304 
124 "Y19" 60.16480 0.00000 0.00000 14.08474 7.746535 1.613128 
125 "S7" 83.06249 84.12146 0.00000 51.76366 62.69801 10.23588 
126 "Q19" 0.00000 82.74357 16.59724 24.48204 47.28640 10.89716 
127 "L25" 84.01923 83.28222 100.0000 69.80094 69.13737 104.2194 
128 "Y33" 0.00000 100.0000 37.84390 38.51852 72.64571 23.93284 
129 "K32" 82.49332 100.0000 84.70436 75.09168 90.32798 78.67520 
130 "P26" 77.96139 35.28954 50.38834 31.77578 21.78917 23.78391 
131 "C32" 86.57511 0.00000 0.00000 30.45202 16.18556 2.380070 
132 "X27" 100.0000 0.00000 38.62211 44.03566 22.93422 14.52976 
133 "V9" 84.42359 100.0000 19.31029 64.78625 86.36980 17.02350 
134 "P15" 50.62638 65.76486 100.0000 41.65809 40.39048 100.1527 
135 "R15" 100.0000 13.36080 0.00000 42.39850 23.18868 3.102677 
136 "V24" 35.24376 25.63516 74.20768 16.17394 10.57797 49.85598 
137 "U15" 19.09514 88.16968 100.0000 46.72400 62.00585 104.0583 
138 "E17" 23.82544 23.21202 20.90486 5.091876 5.347966 4.995996 
139 "V34" 15.70306 15.66796 0.00000 2.617828 2.946846 1.290590 
140 "R34" 0.00000 100.0000 64.39765 43.05870 74.46149 47.84647 
141 "F14" 16.39734 86.68650 0.00000 27.55052 52.70177 9.581581 
142 "B31" 83.99329 0.00000 85.37881 41.00148 20.17990 68.08970 
143 "F6" 84.85542 16.72694 100.0000 47.86274 24.34654 96.72895 
144 "H19" 100.0000 87.23735 0.00000 67.81240 74.00936 11.57405 
145 "N32" 0.00000 59.01579 50.20218 15.73453 24.29185 24.94949 
146 "I18" 86.88640 0.00000 100.0000 48.56266 23.45637 96.52025 
147 "Y9" 100.0000 84.28931 87.22210 78.98302 75.37525 79.97642 
148 "E26" 100.0000 18.87846 87.45861 56.07217 29.43127 72.73626 
149 "G3" 0.00000 17.88205 84.83101 14.26468 7.827810 66.17014 
150 "G17" 15.47570 14.66087 100.0000 20.38392 9.917211 95.39092 
151 "U4" 75.22393 79.47662 78.64042 53.92742 58.35275 63.72203 
152 "N24" 100.0000 0.00000 63.08385 48.18765 24.59476 36.39872 
153 "E5" 25.15908 68.06134 24.09552 18.85047 32.22104 10.52102 
154 "T16" 26.63615 77.85000 77.30831 33.45948 46.42763 60.45095 
155 "I23" 0.00000 11.97375 0.00000 1.473154 1.946175 1.157719 
156 "A1" 0.00000 0.00000 39.46746 3.308271 1.923163 13.15790 
157 "S29" 0.00000 34.42893 85.18502 16.86706 12.84642 67.60951 
158 "D5" 31.65942 12.84657 0.00000 4.868854 3.784171 1.333660 
159 "A11" 100.0000 68.01251 85.83352 69.35081 56.85953 74.46495 
160 "X11" 18.81132 100.0000 13.85824 37.91590 72.54411 14.46668 
161 "D20" 75.84039 28.74647 73.35012 34.13665 20.58781 49.61665 
162 "S19" 0.00000 12.55970 100.0000 19.38325 9.171457 95.29968 
163 "P37" 70.83543 100.0000 13.73007 55.48646 81.60411 15.26483 
164 "H2" 70.83543 80.38758 22.93278 42.16113 54.20826 13.13044 
165 "W4" 100.0000 13.73465 100.0000 60.29707 30.39089 97.24079 
166 "K10" 80.21820 28.25666 19.36980 28.66113 18.60811 5.862784 
167 "T4" 87.62646 100.0000 100.0000 84.54221 94.55303 108.3490 
168 "R12" 0.00000 87.42351 82.78782 38.76153 57.86757 71.08866 
169 "F3" 15.98230 0.00000 16.76051 2.322723 1.632612 3.290952 
170 "U1" 18.41917 100.0000 87.76837 50.85998 77.71560 82.88514 
171 "A8" 14.07797 41.09560 100.0000 24.56864 18.47684 96.82278 
172 "T1" 0.00000 66.08835 13.18074 15.24049 29.02850 7.130092 
173 "Q9" 47.82483 79.27214 57.98123 35.16460 49.08834 36.16801 
174 "L19" 87.24193 100.0000 0.00000 66.37153 87.25125 14.20600 
175 "Q12" 54.42588 56.35920 22.11643 22.05461 26.36473 8.542776 
176 "B27" 100.0000 32.00885 14.03830 45.10159 28.09462 5.544075 
177 "D1" 85.29488 100.0000 68.93111 72.62119 89.57873 54.88594 
178 "L15" 88.31769 33.15633 0.00000 34.98949 23.24650 3.504057 
179 "L36" 0.00000 37.30220 100.0000 22.93344 16.27085 96.48308 
180 "F31" 15.75799 0.00000 33.24025 3.487445 2.095841 9.542393 
181 "D28" 0.00000 43.28679 36.21881 8.489650 12.89265 13.00940 
182 "E32" 0.00000 88.17884 0.00000 27.61941 54.23137 9.873211 
183 "L22" 15.07286 0.00000 84.92561 14.15108 6.352984 66.05356 
184 "I5" 100.0000 35.31853 56.59113 50.46267 31.30380 30.49671 
185 "W11" 86.63157 0.00000 18.94865 31.02995 16.42169 5.198527 
186 "H36" 100.0000 100.0000 88.68086 90.84529 98.29579 86.39988 
187 "Y14" 45.40780 0.00000 61.91653 14.20382 7.102282 33.46611 
188 "Z33" 35.44671 0.00000 86.30350 18.01168 8.290780 68.61482 
189 "Z28" 66.72465 86.81010 0.00000 43.14000 60.86219 10.33571 
190 "M3" 0.00000 14.12375 69.67727 9.549032 5.418986 42.94488 
191 "Q15" 100.0000 84.67384 60.67445 71.95561 72.96089 41.74057 
192 "Y3" 13.21736 62.40635 100.0000 31.81287 33.07208 99.25855 
193 "N15" 100.0000 68.27497 59.16991 62.35669 54.26682 36.99551 
194 "Q30" 42.66270 37.40597 18.28489 11.80499 12.57752 5.289954 
195 "O36" 0.00000 83.86053 31.36797 26.20257 49.10537 16.47171 
196 "L3" 100.0000 83.22423 15.65881 65.57287 68.92616 12.69266 
197 "O25" 35.99603 100.0000 14.21225 41.07327 74.17050 14.68538 
198 "W35" 32.23316 85.51461 0.00000 29.30024 52.45451 9.441698 
199 "X14" 11.56481 0.00000 0.00000 1.515493 1.265790 1.024155 
200 "T32" 19.21263 52.57801 47.02220 14.05515 19.88522 21.52514 
201 "A37" 100.0000 62.64286 0.00000 54.23123 46.85083 7.046953 
202 "R4" 32.74739 16.21729 100.0000 23.24467 11.58557 95.56230 
203 "M26" 15.17967 0.00000 64.64485 8.527578 4.105114 36.38092 
204 "U31" 57.49599 54.29007 76.42634 31.64574 29.12190 55.87836 
205 "J14" 38.67399 0.00000 36.54994 8.018307 4.391373 11.58686 
206 "F35" 36.65370 87.78058 100.0000 49.73604 63.16563 104.1235 
207 "D23" 87.67224 68.76478 100.0000 64.41772 54.25711 101.6306 
208 "I37" 61.32601 0.00000 100.0000 32.51804 15.18371 95.76843 
209 "C12" 0.00000 62.21408 100.0000 31.08628 32.57424 99.20072 
210 "Z8" 0.00000 15.93347 14.38315 2.098005 2.674818 2.972427 
211 "O10" 68.73579 12.38727 0.00000 19.06532 11.05729 1.989883 
212 "M33" 68.72663 17.56466 53.54696 23.91914 13.67097 25.50772 
213 "U36" 61.90890 100.0000 0.00000 50.33967 78.98517 13.45478 
214 "A23" 37.80270 100.0000 0.00000 41.22266 74.28441 13.02757 
215 "S22" 65.50698 100.0000 85.86404 64.84554 85.00086 80.18885 
216 "G25" 11.99207 61.09102 0.00000 13.28110 24.74689 4.937018 
217 "B14" 62.86870 100.0000 100.0000 68.69179 86.38050 107.6063 
218 "M15" 0.00000 56.89784 66.39658 18.15814 23.92184 41.84534 
219 "H24" 70.56687 86.63767 100.0000 63.07490 68.90371 104.5286 
220 "M8" 44.11078 100.0000 69.22866 50.89337 78.36715 54.25768 
221 "F23" 12.83131 0.00000 100.0000 19.48327 8.462947 95.15764 
222 "D32" 0.00000 61.77005 84.63722 25.27308 29.94308 69.52648 
223 "Q3" 100.0000 0.00000 87.61425 55.07294 27.34844 72.66425 
224 "I13" 20.22736 39.25689 64.17029 13.50450 13.39486 37.34384 
225 "L10" 100.0000 64.77607 43.07317 57.96136 49.86615 21.99538 
226 "Z3" 87.00847 68.73121 0.00000 46.01423 46.81051 7.471946 
227 "W24" 12.70008 100.0000 100.0000 54.87799 79.25806 106.9590 
228 "H11" 100.0000 14.95384 32.44678 44.05643 24.04702 11.23293 
229 "T25" 55.79461 0.00000 33.51492 13.73287 7.375218 10.16681 
230 "G33" 44.55634 39.22484 0.00000 12.33562 13.54436 2.824400 
231 "H5" 100.0000 0.00000 12.79164 42.09671 22.15877 4.317118 
232 "A33" 38.49546 43.85901 82.53300 23.29813 19.64637 64.10430 
233 "B10" 100.0000 34.87602 84.74708 57.64700 34.02760 68.79831 
234 "B6" 66.76280 14.34653 100.0000 35.97894 17.92134 96.11459 
235 "K22" 87.69970 0.00000 60.46540 37.11260 18.95004 32.91867 
236 "U11" 0.00000 82.81071 69.66201 32.02438 50.36951 50.41790 
237 "E1" 37.05043 65.68093 42.86717 22.13882 32.01760 20.28925 
238 "E36" 46.99168 20.26246 57.00618 14.93453 9.378869 28.55804 
239 "W7" 34.66850 100.0000 85.50393 52.96172 78.88736 79.00757 
240 "W18" 32.53681 0.00000 13.58816 4.824385 2.937715 2.720452 
241 "P32" 0.00000 14.71427 26.99016 2.729280 2.765300 6.796992 
242 "W29" 100.0000 89.36599 100.0000 87.13791 84.06508 106.1878 
243 "R27" 54.87907 20.36774 79.49645 23.55072 13.19692 57.94436 
244 "C23" 36.12879 52.99763 0.00000 13.98068 20.45356 4.071436 
245 "J19" 44.00092 37.65469 43.64691 14.64168 13.85228 17.74138 
246 "G9" 12.66499 100.0000 0.00000 37.00411 72.10931 12.82990 
247 "K13" 80.84077 49.65896 79.50256 44.34795 33.20089 60.71978 
248 "Y20" 14.24887 100.0000 40.76905 39.60905 73.16651 25.85609 
249 "K26" 86.36606 100.0000 37.68521 67.79201 87.74134 25.20850 
250 "S8" 60.98421 100.0000 59.36065 55.44572 80.97473 42.72004 
251 "N37" 19.83825 35.65118 33.51339 7.669214 9.734769 10.94063 
252 "Q20" 62.04776 57.09163 100.0000 42.98823 35.59151 99.15628 
253 "O18" 19.34997 18.51530 58.12772 8.595419 5.808294 29.36603 
254 "L26" 85.79690 0.00000 35.40093 31.69702 16.61481 12.03682 
255 "T7" 79.72534 54.31144 47.22210 37.91514 33.10100 22.98127 
256 "Y34" 32.51545 43.62554 100.0000 28.04995 21.27209 97.17899 
257 "S13" 100.0000 100.0000 63.90173 83.77629 95.46864 49.16674 
258 "K33" 100.0000 100.0000 12.65431 77.49713 92.95737 16.09376 
259 "V16" 100.0000 87.13359 32.38575 69.27215 74.48079 19.60930 
260 "P27" 62.08591 40.50355 17.77523 20.32843 18.07943 5.770170 
261 "C7" 17.78592 38.28794 16.90852 6.811338 10.31384 4.766290 
262 "C33" 39.18364 17.46395 34.59220 8.858369 6.201830 10.77829 
263 "N27" 15.27733 100.0000 63.18151 43.61122 74.77810 46.44044 
264 "X28" 60.86824 0.00000 16.81239 14.85302 8.092993 3.890729 
265 "C26" 0.00000 41.81430 67.64324 13.58609 14.29959 41.79985 
266 "V10" 61.40078 84.76844 41.58541 41.61432 57.78496 23.33667 
267 "J35" 70.82628 0.00000 57.45632 24.95209 12.75102 29.14559 
268 "P16" 17.53567 40.58747 84.37476 19.07439 16.11226 66.73536 
269 "N8" 55.91516 63.64080 0.00000 24.98511 32.42515 5.802717 
270 "R16" 68.40925 43.35546 100.0000 41.83156 28.26735 97.80343 
271 "E8" 100.0000 50.85069 35.59319 51.54929 38.51303 15.32687 
272 "V25" 0.00000 0.00000 0.00000 1.000000 1.000000 1.000000 
273 "K2" 76.33173 19.34234 39.94507 26.66020 15.59051 14.87737 
274 "U16" 34.37095 87.67834 40.67903 33.69110 56.57259 22.90399 
275 "P5" 43.90936 43.72473 57.86984 18.55263 17.87486 30.90108 
276 "E18" 65.63516 44.18250 0.00000 22.66566 20.79338 3.679608 
277 "Q34" 100.0000 39.01579 0.00000 46.29388 30.97835 4.401147 
278 "V35" 82.99535 76.76204 58.41154 52.63226 55.92127 37.01846 
279 "T19" 63.91852 70.77592 61.76089 38.27434 43.64166 39.07419 
280 "R35" 65.21553 42.07065 36.65522 23.84322 20.31810 13.89042 
281 "J22" 0.00000 100.0000 12.53986 36.66300 71.90362 14.15966 
282 "F15" 85.71298 35.74884 100.0000 51.38313 30.42800 97.71743 
283 "D10" 100.0000 15.90448 61.54574 48.62062 25.99966 34.88055 
284 "B32" 19.57427 16.58350 40.08545 5.513246 4.282788 13.90026 
285 "N2" 17.67147 61.06050 82.09964 25.23360 29.56780 65.20263 
286 "F7" 100.0000 51.56634 62.55894 56.17324 40.74956 38.48746 
287 "I26" 55.62371 16.97261 18.42679 13.39049 8.614163 4.479348 
288 "H20" 45.47189 100.0000 37.88510 45.64842 76.32134 24.29269 
289 "M22" 0.00000 100.0000 88.29175 49.88074 77.18988 83.77887 
290 "N33" 0.00000 30.22354 14.22141 3.951794 6.391914 3.559404 
291 "K18" 12.65736 31.35882 0.00000 4.435791 6.982733 1.973885 
292 "I19" 21.32448 67.57458 63.57671 23.65914 33.70012 40.02484 
293 "V30" 0.00000 34.96452 55.72290 9.391171 10.03533 27.68180 
294 "Y10" 84.10468 65.54055 22.43534 43.03223 42.92659 10.74012 
295 "A4" 100.0000 65.67636 14.43809 55.92562 49.71476 9.228888 
296 "E27" 81.30922 67.35180 81.58694 52.40602 47.80695 66.45282 
297 "G12" 100.0000 65.78775 100.0000 73.52127 56.83560 101.6489 
298 "G4" 38.97002 66.94896 15.95178 20.89199 32.53253 8.087520 
299 "A18" 36.74983 64.01770 80.01068 29.34560 33.67532 62.40396 
300 "G18" 16.84138 69.47585 39.93286 19.94804 33.64515 18.70750 
301 "B19" 16.77577 59.64904 18.60075 13.62746 23.97456 7.478574 
302 "U5" 37.83627 0.00000 100.0000 23.69732 10.63573 95.35511 
303 "S32" 45.69009 63.60418 60.69886 26.86292 32.69362 36.37071 
304 "N25" 18.19333 23.61181 87.64935 16.99878 10.10632 71.40495 
305 "V14" 86.60563 36.39582 65.44747 41.23019 26.67241 39.98862 
306 "E6" 0.00000 0.00000 64.77455 7.739950 3.695555 36.50001 
307 "J33" 58.42374 84.42512 70.35630 45.49567 58.81880 52.26571 
308 "T17" 41.93790 83.61639 83.34783 42.44244 56.04378 71.47796 
309 "P3" 57.58755 38.78233 83.02281 29.02298 20.63379 64.80539 
310 "I24" 60.41352 100.0000 41.88602 52.22699 79.65551 27.20761 
311 "D8" 83.63775 41.78225 32.15686 34.91435 25.96809 11.93862 
312 "A2" 56.85206 68.72511 37.31746 29.83445 38.22712 17.42668 
313 "K16" 81.29091 75.44976 32.97017 46.89343 52.30529 16.80731 
314 "S30" 63.96124 47.21141 56.95125 27.74856 24.14209 30.67769 
315 "A16" 70.46464 86.41489 62.59861 51.24514 63.92785 43.26609 
316 "D6" 60.07324 28.98909 47.35180 19.86235 13.92275 20.33408 
317 "J31" 89.25765 44.57160 16.71321 38.89848 29.27661 6.689408 
318 "A12" 16.90242 89.37514 26.59495 30.46106 56.80005 15.60604 
319 "A14" 0.00000 0.00000 88.13458 14.42134 6.367687 71.69157 
320 "X12" 68.14832 0.00000 42.15457 20.88674 10.94676 15.78322 
321 "O34" 68.22156 56.57130 13.47829 28.47777 29.84549 6.647288 
322 "D21" 89.19661 15.15831 71.41985 41.58371 22.00624 46.80861 
323 "M24" 15.01640 54.18784 34.87449 12.60834 20.17158 13.43398 
324 "S20" 56.07691 15.31853 45.27047 16.02415 9.458273 18.03606 
325 "O8" 14.09628 75.61761 90.82170 34.92535 44.79523 82.97298 
326 "Q1" 84.54108 24.06958 58.72740 36.01792 20.90904 31.47114 
327 "H22" 0.00000 55.94415 36.79713 12.66706 21.14257 14.72179 
328 "H3" 59.10277 12.29267 68.47181 21.69972 11.52452 41.90367 
329 "W22" 83.08385 86.65751 47.20531 56.81589 67.37198 28.58736 
330 "W5" 0.00000 63.92157 0.00000 13.96720 26.93077 5.322436 
331 "K20" 38.37186 100.0000 100.0000 59.24702 81.51074 107.1637 
332 "K11" 58.67857 70.64927 17.23507 30.02475 39.94181 9.343087 
333 "R25" 41.90433 32.92287 100.0000 27.99221 17.50314 96.45452 
334 "T5" 36.33478 86.75822 60.66529 36.92880 56.93469 40.48286 
335 "N35" 0.00000 12.27893 52.97627 5.829219 3.720483 24.00239 
336 "R13" 37.16335 50.38834 43.97192 16.25709 19.96726 19.07556 
337 "C30" 35.18883 12.95796 50.93156 9.669553 5.810465 22.34342 
338 "F4" 72.48798 14.40146 14.33433 21.74182 12.61664 3.847092 
339 "V32" 89.49111 83.94598 71.47631 64.95108 68.36083 54.60445 
340 "U2" 62.46128 85.78164 85.19722 52.65742 63.32038 75.48860 
341 "Y7" 100.0000 41.75479 43.45922 49.81279 33.48620 19.54161 
342 "A9" 34.34195 83.95209 17.49294 29.23310 50.86600 11.55804 
343 "I21" 42.81529 23.00755 13.66751 9.095505 7.412781 3.374677 
344 "T2" 77.58602 11.59075 86.56291 37.35200 18.91841 70.10473 
345 "P35" 70.28458 69.03182 81.74258 46.16128 45.79722 66.64884 
346 "Q10" 53.33333 42.03098 26.23484 17.27635 17.02948 8.480022 
347 "A6" 35.32769 39.65209 69.49722 17.68011 15.54330 44.23374 
348 "L20" 0.00000 69.27901 60.31739 22.25965 34.29980 36.50144 
349 "L34" 85.50088 31.10857 88.90517 46.11384 26.82063 75.36645 
350 "Q13" 56.28443 88.15442 14.76310 39.24845 60.16284 12.19201 
351 "Y12" 16.32258 75.82818 10.83848 21.09393 39.47653 8.434439 
352 "B28" 42.44755 64.76844 0.00000 20.50196 30.86842 5.738342 
353 "P12" 14.64866 88.86854 52.73823 33.15442 57.29064 32.68327 
354 "D2" 0.00000 0.00000 0.00000 1.000000 1.000000 1.000000 
355 "G14" 29.87869 63.04417 54.20615 21.10187 29.50409 29.33998 
356 "L16" 35.24071 35.95178 28.22156 10.08021 11.13062 8.542923 
357 "K7" 15.01488 88.15595 74.13138 37.50372 58.25201 57.82668 
358 "L37" 100.0000 100.0000 0.00000 77.23538 92.85269 14.71507 
359 "E29" 13.18990 0.00000 48.12848 5.164092 2.739543 19.58532 
360 "F32" 39.01579 55.79004 100.0000 33.63450 30.03033 98.57546 
361 "W32" 10.74083 30.91630 47.25566 7.601230 8.103182 19.77856 
362 "D29" 49.49264 11.72503 0.00000 10.00623 6.322095 1.552977 
363 "A20" 44.53803 47.11528 70.60655 22.64386 21.11046 46.52747 
364 "E33" 0.00000 34.13748 42.32242 7.054177 8.825841 16.22022 
365 "G30" 100.0000 39.60327 70.17166 54.48611 34.48275 46.84722 
