targets/EPSON_ET-2800/CustomET2800Chart-Refined.ti2
CTI2   

DESCRIPTOR "Argyll Calibration Target chart information 2"
ORIGINATOR "Argyll printtarg"
CREATED "Sat Jun  1 13:45:46 2024"
TARGET_INSTRUMENT "GretagMacbeth SpectroScan"
ACCURATE_EXPECTED_VALUES "true"
APPROX_WHITE_POINT "93.963954 98.860119 107.775742"
COLOR_REP "iRGB"
PAPER_SIZE "215.9x279.4"
RANDOM_START "632"
STEPS_IN_PASS "37"
PASSES_IN_STRIPS2 "26"
STRIP_INDEX_PATTERN "A-Z, A-Z"
PATCH_INDEX_PATTERN "0-9,@-9,@-9;1-999"
INDEX_ORDER "STRIP_THEN_PATCH"

NUMBER_OF_FIELDS 8
BEGIN_DATA_FORMAT
SAMPLE_ID SAMPLE_LOC RGB_R RGB_G RGB_B XYZ_X XYZ_Y XYZ_Z 
END_DATA_FORMAT

NUMBER_OF_SETS 962
BEGIN_DATA
1 "J25" 100.0000 100.0000 100.0000 93.96395 98.86012 107.7757 
2 "J26" 44.57465 55.78088 41.50454 14.73433 17.95042 12.86172 
3 "I33" 67.64630 14.49302 86.23178 25.64479 16.62003 31.64087 
4 "J27" 60.70954 88.09644 66.21958 37.59593 51.73302 39.64529 
5 "I5" 63.81933 66.69871 48.68696 29.98271 31.32055 19.63836 
6 "I34" 31.37102 59.83520 22.12253 11.06458 16.19447 7.321708 
7 "T7" 77.89883 20.28992 95.53826 30.05996 19.49383 34.79854 
8 "J28" 79.18517 88.73274 42.98466 46.09025 53.23293 15.52515 
9 "S14" 100.0000 63.14641 73.01289 65.87714 46.05006 43.36146 
10 "I6" 100.0000 0.00000 100.0000 39.85178 24.24015 32.93884 
11 "M22" 0.00000 100.0000 0.00000 17.86594 29.69199 11.75329 
12 "I35" 0.00000 0.00000 100.0000 11.08473 9.188789 36.95378 
13 "T32" 0.00000 100.0000 100.0000 25.87302 38.97210 50.83557 
14 "T8" 100.0000 0.00000 0.00000 48.56732 27.57922 9.093903 
15 "H13" 0.00000 62.08896 100.0000 21.04757 24.25820 71.56303 
16 "J29" 100.0000 100.0000 67.07103 83.64058 90.91817 43.19546 
17 "G20" 45.56649 0.00000 0.00000 12.62605 9.618996 7.039926 
18 "S15" 100.0000 68.44129 100.0000 72.47744 56.68534 78.87102 
19 "Y20" 69.56588 100.0000 0.00000 32.50665 44.72911 12.22546 
20 "I7" 0.00000 48.34363 0.00000 6.666642 8.545604 5.301807 
21 "C8" 100.0000 70.93004 0.00000 64.29191 48.49563 11.05239 
22 "M23" 65.30404 0.00000 100.0000 23.21102 16.48425 36.23537 
23 "T1" 0.00000 0.00000 64.43427 4.668918 4.188202 9.042448 
24 "I36" 63.86511 100.0000 100.0000 43.88749 55.80538 70.20940 
25 "E28" 100.0000 0.00000 65.12856 56.14843 30.90863 22.25113 
26 "T33" 0.00000 47.82635 55.20409 8.432452 11.73968 18.98563 
27 "R21" 52.56733 50.27695 0.00000 18.29935 17.81082 7.305608 
28 "T9" 0.00000 100.0000 57.31899 20.57779 33.09055 20.37353 
29 "L29" 63.59197 70.46464 100.0000 44.81966 45.06154 87.28398 
30 "H14" 100.0000 68.09491 62.32090 66.43742 48.73165 35.36269 
31 "J16" 66.51408 100.0000 66.77043 42.47784 58.69196 38.07152 
32 "J30" 47.23583 47.58068 50.55619 16.46255 15.41987 20.27251 
33 "I24" 52.77180 0.00000 55.91363 13.00116 8.940831 12.42724 
34 "G21" 68.85939 0.00000 0.00000 25.81500 16.73211 9.109433 
35 "C31" 0.00000 81.48775 100.0000 22.36807 30.56676 64.71815 
36 "S16" 0.00000 39.45220 100.0000 18.01753 16.83244 56.89611 
37 "P23" 100.0000 84.91798 100.0000 85.80836 79.92612 98.76588 
38 "Y21" 40.25483 63.45159 0.00000 13.20737 17.95278 6.662604 
39 "K35" 100.0000 85.10109 49.88632 71.50040 62.24934 24.68975 
40 "I8" 0.00000 54.99504 38.15671 8.048088 12.74206 9.097648 
41 "R36" 83.69116 100.0000 24.18708 43.37960 51.88795 11.89088 
42 "C9" 0.00000 70.52567 0.00000 11.03192 16.98714 7.867322 
43 "D35" 25.57107 0.00000 0.00000 4.825345 4.468451 4.130241 
44 "M24" 0.00000 31.61212 35.33379 4.033761 4.740104 5.705267 
45 "Q28" 100.0000 43.27001 0.00000 60.63314 36.25141 10.09239 
46 "T2" 68.20630 69.52621 58.11093 36.64807 37.10066 30.38165 
47 "K30" 100.0000 100.0000 84.75929 88.91688 95.93052 77.04521 
48 "I37" 0.00000 32.60700 62.51011 7.393508 7.534340 19.46070 
49 "V37" 80.00153 0.00000 100.0000 28.75988 18.50033 32.37183 
50 "E29" 100.0000 100.0000 46.52476 71.65614 71.19609 16.94777 
51 "F28" 100.0000 41.63577 100.0000 55.55466 36.26871 49.92782 
52 "T34" 0.00000 22.78935 0.00000 2.996904 3.227959 2.909605 
53 "X30" 0.00000 0.00000 36.02808 2.282017 2.235583 3.069493 
54 "R22" 48.96468 38.18875 100.0000 24.31921 20.71989 53.34471 
55 "X5" 68.97536 41.75021 0.00000 29.26588 20.89817 7.764380 
56 "T10" 48.38178 81.16732 100.0000 36.17250 45.08894 87.66755 
57 "S8" 100.0000 0.00000 43.32952 59.02138 32.73312 15.35650 
58 "L30" 100.0000 84.59449 76.33021 78.73363 71.21520 59.18295 
59 "F8" 43.46990 100.0000 0.00000 20.76876 32.81862 12.23491 
60 "H15" 37.04891 0.00000 100.0000 15.68845 12.58096 39.61739 
61 "N20" 34.48539 34.54643 0.00000 7.344985 7.404667 4.688074 
62 "J17" 76.52705 70.43870 0.00000 37.39869 33.27391 7.965354 
63 "B17" 72.23163 0.00000 54.58915 29.43625 17.38809 16.64226 
64 "J31" 48.23377 67.70428 56.45533 21.91939 28.95088 26.62306 
65 "A24" 74.93095 43.34783 100.0000 38.93045 29.57302 55.81158 
66 "I25" 34.15122 0.00000 65.47646 8.589787 6.592138 15.96101 
67 "A13" 41.86618 100.0000 84.21607 32.37247 48.12500 47.34986 
68 "G22" 78.95018 90.81407 100.0000 66.26540 73.14599 99.95818 
69 "P15" 0.00000 0.00000 81.50301 7.378038 6.353393 18.95542 
70 "C32" 70.46616 54.69291 59.90539 34.76248 26.77015 29.67901 
71 "M29" 0.00000 68.35431 63.83001 13.03353 21.70575 24.36364 
72 "S17" 0.00000 100.0000 31.43359 18.07896 30.10349 13.30492 
73 "T16" 0.00000 100.0000 86.91844 23.28677 36.18614 37.08402 
74 "P24" 64.23590 75.59472 0.00000 25.48385 29.39428 7.494918 
75 "R15" 42.88701 55.77783 69.39803 18.99553 20.51351 42.37380 
76 "Y22" 37.65164 58.44511 100.0000 25.68256 26.64604 70.09138 
77 "E14" 100.0000 85.42458 0.00000 66.49769 56.53412 11.40991 
78 "K36" 88.78920 100.0000 0.00000 47.16665 52.48113 10.79046 
79 "O3" 77.82254 100.0000 89.81765 62.23885 75.52911 76.45981 
80 "I9" 26.10666 0.00000 41.00404 4.002803 3.592463 4.956599 
81 "D17" 100.0000 45.38949 77.32509 62.49748 37.75701 36.70707 
82 "R37" 51.96765 27.82177 0.00000 15.14940 11.90677 6.961794 
83 "V8" 100.0000 0.00000 83.45769 49.49479 28.33890 29.15247 
84 "C10" 39.36370 47.92096 39.63989 11.81475 13.38194 11.77212 
85 "E36" 46.72313 100.0000 100.0000 37.42064 52.09124 67.54985 
86 "D36" 100.0000 66.11734 38.75944 64.87835 45.94134 18.52525 
87 "W17" 0.00000 50.15793 72.96254 12.31751 15.10120 41.59432 
88 "M25" 82.28275 100.0000 56.58350 52.12894 65.11987 26.13936 
89 "W13" 88.25971 100.0000 100.0000 83.90783 92.69871 105.0108 
90 "Q29" 72.46357 70.43259 76.07843 47.23950 44.61480 59.45599 
91 "P30" 82.18204 71.60754 100.0000 55.42063 49.50785 80.14504 
92 "T3" 61.31075 74.50828 45.67178 28.99144 36.53997 16.79634 
93 "S34" 62.29953 100.0000 37.12673 30.09664 44.27869 17.04719 
94 "K31" 100.0000 50.30900 38.27878 60.68477 37.76847 16.40723 
95 "X1" 73.55001 58.04379 45.78317 37.76865 29.60959 18.68468 
96 "J1" 100.0000 72.07752 78.76555 73.59591 56.94389 57.73573 
97 "B28" 0.00000 42.68406 27.28008 5.876628 7.764483 6.279277 
98 "W1" 56.75746 36.03723 65.38033 22.76420 15.31182 28.51703 
99 "H33" 30.89799 48.83497 0.00000 9.590324 11.43316 6.038406 
100 "E30" 0.00000 69.72763 80.96590 16.24869 23.71334 44.03595 
101 "C2" 67.47692 77.34188 70.93462 42.00568 47.55489 50.46742 
102 "F29" 40.07630 32.35981 32.87098 9.611786 8.366901 8.010594 
103 "Q33" 44.04364 100.0000 56.04944 26.67596 41.61761 23.81082 
104 "T35" 57.80880 0.00000 70.61723 19.23883 12.14551 21.39593 
105 "K6" 33.03578 33.76822 60.79805 10.43264 9.009857 25.63213 
106 "X31" 57.02602 0.00000 28.97383 14.64259 10.03984 8.208127 
107 "L21" 76.82307 75.18120 44.89662 41.88616 41.47618 16.71091 
108 "R23" 74.05966 26.75059 0.00000 30.75739 19.61557 7.939310 
109 "X13" 78.90898 0.00000 25.83658 31.84776 19.12265 10.12039 
110 "X6" 57.63485 57.66232 69.73220 29.05019 27.06256 46.28716 
111 "O30" 53.79110 51.65637 36.71473 19.53318 18.60528 11.78873 
112 "T11" 100.0000 23.91547 0.00000 55.05952 31.83547 9.816038 
113 "K1" 79.81994 100.0000 0.00000 37.77912 47.30430 10.86826 
114 "S9" 40.81636 53.33639 52.53223 14.66764 16.88005 21.33143 
115 "R31" 47.06188 68.34821 70.21592 23.93940 30.36783 44.18152 
116 "L31" 40.23194 65.79995 42.80461 15.47444 23.44627 13.57702 
117 "M4" 88.52522 100.0000 75.91516 71.79143 83.82991 59.16155 
118 "F9" 0.00000 38.47562 81.41909 12.40634 11.92023 45.72200 
119 "P34" 76.80629 0.00000 75.22545 31.29224 18.15322 23.30107 
120 "H16" 25.83047 88.20325 100.0000 28.03215 39.61915 68.07768 
121 "H27" 30.65385 68.03845 100.0000 27.43505 32.55544 82.26177 
122 "N21" 100.0000 90.31662 88.96620 87.57329 85.36172 87.65668 
123 "R7" 65.61379 100.0000 82.03403 44.99946 60.44282 54.23475 
124 "J18" 100.0000 87.18395 67.22057 76.76228 71.27122 45.00839 
125 "D6" 28.78920 33.39284 40.57069 6.322623 6.293685 9.139915 
126 "B18" 83.73541 60.89113 0.00000 46.99347 34.84404 8.450425 
127 "W24" 0.00000 24.12604 52.06073 4.983496 4.910888 9.812604 
128 "J32" 45.00343 0.00000 22.67796 9.831925 7.703372 7.066374 
129 "V31" 59.27825 41.98062 41.06203 22.10092 16.06017 12.96619 
130 "A25" 0.00000 70.60044 43.68658 11.61883 20.51709 12.23192 
131 "N31" 83.84527 32.05615 100.0000 38.10194 25.37060 42.60077 
132 "I26" 100.0000 79.90845 59.62005 71.65539 59.85673 35.67147 
133 "G8" 0.00000 35.49706 51.11620 6.011809 6.905680 12.64644 
134 "A14" 0.00000 23.44701 80.12055 8.549134 7.550559 27.88079 
135 "C14" 49.48196 0.00000 78.26200 16.29427 11.09523 27.44183 
136 "G23" 76.50111 36.51637 48.29480 40.24663 24.26703 17.73340 
137 "F14" 25.79538 79.73144 0.00000 15.11835 24.91627 9.705205 
138 "P16" 86.54154 83.79034 100.0000 71.86850 70.28515 98.89376 
139 "G33" 0.00000 90.44633 100.0000 22.79799 33.07860 53.78447 
140 "C33" 60.55238 69.94583 77.67758 35.29710 38.06385 59.23686 
141 "Q13" 100.0000 100.0000 26.88945 65.11994 63.32880 11.74433 
142 "M30" 53.90707 82.76493 0.00000 23.07117 32.80232 9.569787 
143 "Q5" 85.14076 0.00000 0.00000 33.23525 20.00016 8.595943 
144 "S18" 55.46349 0.00000 0.00000 18.17566 12.69131 8.213518 
145 "Y31" 0.00000 51.76623 100.0000 20.06381 20.62730 66.58364 
146 "T17" 26.48814 26.41642 100.0000 17.07047 14.81623 48.89355 
147 "J8" 100.0000 20.37842 100.0000 48.47794 29.91860 41.06925 
148 "P25" 100.0000 79.23400 25.28420 68.22740 55.16539 13.20167 
149 "R2" 63.98260 80.80568 100.0000 47.23805 53.27553 92.05808 
150 "R16" 36.28443 22.02792 51.17571 8.328871 6.467217 13.58126 
151 "F3" 0.00000 55.14000 52.27436 9.118004 14.34768 16.39329 
152 "Y23" 76.31342 100.0000 33.66751 38.91960 51.12596 14.61282 
153 "P4" 100.0000 35.15526 58.53513 59.83727 34.44784 23.69469 
154 "E15" 60.85908 57.94461 100.0000 37.43175 34.36423 72.88684 
155 "T22" 20.51881 26.81926 0.00000 4.712529 4.980913 4.008293 
156 "K37" 73.06325 21.33974 100.0000 28.94415 20.04589 41.07572 
157 "D28" 79.52544 61.09407 82.11490 50.70112 38.96335 59.41012 
158 "O4" 67.66461 58.94102 25.62753 30.79224 26.58214 9.289472 
159 "L10" 48.65034 34.84245 48.66712 15.06629 11.20200 15.86596 
160 "I10" 49.69711 58.41611 34.54643 17.50004 20.88712 10.47563 
161 "O19" 0.00000 81.33211 25.04768 13.69926 23.12601 10.03748 
162 "D18" 29.83291 79.62310 60.52491 18.57998 30.52641 24.62383 
163 "A36" 100.0000 100.0000 57.75845 74.49570 76.55058 25.40356 
164 "S1" 83.70184 86.02579 75.36889 68.88593 71.96962 64.47935 
165 "H3" 56.13031 63.42260 57.07027 25.63071 27.51473 28.31305 
166 "V9" 0.00000 20.51575 22.64286 2.272388 2.442305 2.635218 
167 "E3" 62.02335 27.02678 0.00000 21.65018 15.27217 7.695144 
168 "C11" 23.76593 62.58030 77.92020 17.26600 23.09313 51.51789 
169 "Q2" 21.95926 0.00000 79.29961 8.890664 7.239565 23.72528 
170 "E37" 82.73289 44.68605 0.00000 46.55173 30.01973 8.569911 
171 "L7" 41.95468 21.38857 0.00000 9.799721 8.286601 5.789341 
172 "D37" 77.02754 83.69726 0.00000 39.35727 41.54199 9.296357 
173 "B8" 0.00000 54.41672 22.15610 8.084962 11.57963 7.194466 
174 "W18" 100.0000 56.58961 87.79278 68.35305 45.80809 54.77425 
175 "B11" 100.0000 91.40154 100.0000 91.29704 90.98008 106.4161 
176 "M26" 28.72511 41.07118 53.69955 9.379088 9.906190 19.78814 
177 "N37" 80.03662 71.39696 68.74037 53.20005 47.29854 46.69807 
178 "W14" 57.75845 76.85054 58.52445 29.17597 38.56521 28.40518 
179 "W35" 0.00000 40.06104 43.36309 5.494914 7.134139 9.121320 
180 "Q30" 44.22675 56.40345 0.00000 14.76698 17.46540 7.201736 
181 "O27" 78.36881 82.32853 59.18975 51.24633 55.56409 32.72506 
182 "P31" 27.67987 100.0000 70.82475 24.84565 39.20571 30.50484 
183 "W21" 0.00000 62.60777 83.87274 15.33047 20.35869 51.75303 
184 "T4" 22.92363 55.88159 0.00000 10.45761 14.04135 6.834113 
185 "H10" 30.31662 100.0000 34.49149 20.41252 32.80105 14.70763 
186 "S35" 73.17311 41.49081 72.45136 38.33728 24.25909 34.36183 
187 "J13" 20.94606 0.00000 24.70130 2.378685 2.244630 2.521869 
188 "K32" 21.33059 39.03105 0.00000 7.005883 8.081523 5.437319 
189 "K27" 43.50195 25.60006 76.32868 16.15905 12.13634 35.79280 
190 "X2" 100.0000 100.0000 76.03876 87.71389 96.41485 62.04760 
191 "B14" 30.48142 53.42031 46.60716 10.79742 14.99798 14.92057 
192 "J2" 100.0000 82.12711 85.21859 80.95782 70.98435 75.70884 
193 "Y14" 59.40032 56.77577 52.74586 24.19961 22.44146 22.36432 
194 "B29" 79.49187 84.42359 83.41192 64.12986 67.35359 79.09515 
195 "Z35" 83.66064 0.00000 55.73205 39.94213 22.56509 18.41483 
196 "W2" 52.25299 79.94354 72.21790 32.28538 44.19360 48.52484 
197 "Z24" 39.76959 0.00000 53.82925 7.618320 6.046778 9.504838 
198 "H34" 0.00000 23.09453 100.0000 13.35371 11.48462 43.65809 
199 "I13" 100.0000 78.18875 100.0000 79.41000 68.17366 89.01866 
200 "E31" 85.48562 62.42008 100.0000 54.48137 43.49482 71.07342 
201 "L36" 74.79515 44.36713 34.20157 39.66338 25.97957 12.95550 
202 "C3" 50.47684 72.08820 100.0000 35.05249 39.16936 84.38683 
203 "X25" 100.0000 100.0000 92.66651 90.64024 96.14331 91.09127 
204 "F30" 100.0000 92.62074 81.29854 85.31337 85.54437 71.00392 
205 "U13" 57.89425 24.92103 52.71382 20.85150 13.02813 16.12423 
206 "Q34" 15.22087 0.00000 0.00000 2.198048 2.120700 2.191163 
207 "O22" 25.54513 78.73350 74.91569 20.34782 31.70620 39.22078 
208 "T36" 59.88098 24.34424 100.0000 25.14091 19.28162 44.88895 
209 "N11" 76.84901 100.0000 100.0000 65.29875 77.23658 92.61393 
210 "K7" 100.0000 0.00000 23.93072 59.15158 33.42527 12.25891 
211 "Z9" 27.10613 100.0000 100.0000 27.40881 40.23039 53.31040 
212 "X32" 21.39162 33.65682 27.99725 4.523074 5.179107 5.082059 
213 "F35" 0.00000 33.05104 21.14748 3.955845 4.711838 4.112160 
214 "L22" 87.36858 85.86099 0.00000 52.81976 50.20647 10.68635 
215 "D21" 62.07675 80.34333 84.98817 43.09713 51.59362 74.42861 
216 "R24" 33.71633 43.76593 75.28801 15.67506 14.91073 48.23548 
217 "M13" 26.65446 77.79202 100.0000 27.30706 35.81266 79.75931 
218 "X14" 66.56901 76.73610 33.69802 31.47340 37.79082 11.11913 
219 "S23" 22.83818 0.00000 53.33486 4.985183 4.327465 7.995198 
220 "X7" 65.06447 58.21012 0.00000 26.73031 24.13156 7.715292 
221 "Q22" 49.64065 91.18029 100.0000 37.84201 50.33285 78.76600 
222 "O31" 81.50912 70.97887 52.18585 49.98710 43.86740 25.45889 
223 "B2" 46.86809 77.92630 31.31762 19.35770 30.07988 10.72015 
224 "T12" 35.52605 0.00000 0.00000 7.710258 6.449697 5.196710 
225 "W9" 65.45815 22.73442 29.08827 24.35000 15.44422 9.463838 
226 "K2" 73.40505 86.30350 69.15389 50.47711 59.84439 47.95186 
227 "H23" 27.84466 52.60395 64.86915 12.31459 15.11988 31.61561 
228 "S10" 0.00000 43.45464 61.15663 9.218163 11.27256 24.65899 
229 "E24" 59.89471 62.66423 28.39246 23.72510 25.27777 9.077950 
230 "R32" 0.00000 59.24620 0.00000 9.883264 13.90900 7.499462 
231 "S4" 100.0000 88.32074 33.72549 70.11505 62.07408 14.61658 
232 "L32" 57.53414 100.0000 0.00000 26.65296 39.54984 13.09169 
233 "M9" 0.00000 81.19478 59.90234 15.29896 26.25874 20.79557 
234 "M5" 26.81315 59.06004 60.77211 12.12823 17.41624 24.65281 
235 "V21" 41.77310 46.44694 0.00000 11.59214 12.20939 5.919563 
236 "F10" 0.00000 18.81132 67.25414 5.833489 5.365659 14.12046 
237 "O37" 0.00000 56.10590 69.45296 11.66538 16.34578 33.45516 
238 "P35" 91.39086 100.0000 52.95796 63.26595 71.04352 22.38227 
239 "H6" 61.13985 46.16007 29.87259 24.53463 18.79074 9.668281 
240 "H17" 85.07515 56.45075 63.15251 53.15936 36.87401 34.37272 
241 "A31" 100.0000 76.71321 69.64675 73.18340 59.85900 48.15027 
242 "H28" 81.62356 68.57557 32.37201 49.42031 40.75654 13.09338 
243 "C26" 75.66186 82.19883 100.0000 54.72407 56.89419 89.66266 
244 "N22" 54.87907 59.87640 81.28634 30.12679 29.38442 62.52983 
245 "U18" 42.87785 48.16968 100.0000 25.35308 23.29573 62.14838 
246 "R8" 72.62226 100.0000 52.34760 37.74523 50.97872 21.49457 
247 "V12" 86.66972 82.32700 81.13985 72.59018 69.60006 75.85825 
248 "J19" 50.53941 0.00000 100.0000 18.58592 14.16106 37.53179 
249 "V25" 62.97093 54.36484 72.20569 32.38561 26.67174 46.79292 
250 "D7" 25.01259 53.20668 83.47906 16.66272 18.42570 57.53741 
251 "Y36" 0.00000 60.67445 64.77150 11.78739 18.29134 26.73207 
252 "B19" 100.0000 29.60708 86.59342 51.70260 30.28345 34.04830 
253 "Z17" 100.0000 58.92119 0.00000 62.05925 41.42667 10.82255 
254 "W25" 33.19448 51.49004 32.15839 10.46486 14.15288 8.868610 
255 "E6" 59.36065 44.63874 0.00000 21.68083 17.87514 7.359003 
256 "J33" 46.89860 68.93416 82.95415 26.66970 32.26107 63.63977 
257 "D12" 26.59037 44.21759 44.22065 8.019297 9.930141 12.39499 
258 "V32" 28.62440 28.24750 49.30037 7.647196 6.824173 14.86477 
259 "G15" 56.29969 71.44579 23.16930 22.25218 28.66427 8.360139 
260 "A26" 83.72625 19.50408 28.57557 43.71805 25.31633 11.03621 
261 "N6" 22.80156 100.0000 0.00000 18.09987 29.70961 11.55322 
262 "N32" 51.38781 27.50591 22.92821 15.04725 11.28293 7.780690 
263 "Y26" 53.92844 45.77859 73.34401 22.84740 18.17339 42.04779 
264 "I27" 84.12909 72.39033 81.16426 62.37137 53.54644 67.98168 
265 "N25" 100.0000 54.46555 22.54826 58.40837 37.26396 11.72469 
266 "G9" 32.08209 28.08881 26.59648 6.269749 5.951168 5.701648 
267 "U34" 51.99207 100.0000 72.38575 32.63604 47.70253 36.90839 
268 "A15" 51.15740 57.50057 64.32746 22.86661 23.35021 36.76600 
269 "Y7" 59.29808 100.0000 90.93614 42.18880 57.15342 62.10013 
270 "C15" 49.98550 64.51362 46.29587 19.61717 25.08391 16.52740 
271 "P7" 88.65339 91.68536 100.0000 80.12578 83.40895 105.3828 
272 "G24" 0.00000 0.00000 0.00000 1.195074 1.213565 1.310912 
273 "V1" 54.52506 67.57458 67.63409 28.91365 33.27611 44.40839 
274 "F15" 0.00000 79.48730 82.51774 19.52273 29.82300 42.74680 
275 "A4" 100.0000 23.97955 71.26726 59.85574 33.66983 28.79987 
276 "P17" 42.37430 16.20508 39.48425 7.902879 6.068033 7.238010 
277 "B33" 42.52842 43.83612 29.30343 11.73650 12.02273 7.927715 
278 "G34" 63.62402 0.00000 86.50034 22.33977 14.56537 29.68086 
279 "E18" 0.00000 22.57572 39.35149 3.364221 3.460101 5.167319 
280 "C34" 0.00000 0.00000 50.06485 2.991508 2.830384 4.901239 
281 "U21" 82.34226 85.71603 34.59373 49.68481 51.52119 12.47830 
282 "Q14" 27.17021 80.09918 49.29732 15.83344 26.94819 15.80103 
283 "O9" 76.04486 53.75296 26.27298 40.25286 28.68096 10.14673 
284 "M31" 0.00000 38.38407 0.00000 4.992236 5.842556 4.282620 
285 "Y1" 62.01419 0.00000 45.27657 17.45141 11.23742 10.95715 
286 "Q6" 56.40040 61.98367 0.00000 20.39664 22.09330 7.312869 
287 "T25" 83.81170 78.64042 69.23476 61.68126 58.64376 49.56796 
288 "S19" 100.0000 57.61807 100.0000 64.12627 46.27970 64.86039 
289 "X21" 17.14351 0.00000 68.26276 5.954904 5.105808 13.01399 
290 "Y32" 67.89044 86.22568 0.00000 31.14380 39.16367 9.521675 
291 "V17" 66.52934 89.81765 100.0000 51.52487 61.62272 91.55748 
292 "T18" 71.45647 74.78599 68.97536 45.85732 47.46789 48.51980 
293 "G29" 19.77569 58.78386 100.0000 23.19467 25.29437 75.10197 
294 "J9" 0.00000 63.56756 51.27794 10.47142 17.90462 15.10871 
295 "L3" 63.90784 60.93538 64.35187 32.55973 29.98250 38.68332 
296 "P26" 25.06294 29.26986 75.68780 11.92024 10.16329 38.50676 
297 "R11" 78.70909 100.0000 78.07889 57.99218 72.33772 57.28054 
298 "R3" 71.19554 66.66819 84.65705 45.40415 40.92443 70.04474 
299 "L17" 89.39193 100.0000 87.45403 76.11516 86.03901 79.03968 
300 "R17" 51.21233 62.89616 100.0000 34.37377 34.42049 78.74192 
301 "M18" 0.00000 71.46410 100.0000 22.35440 28.29210 73.51105 
302 "F4" 89.11421 15.96857 100.0000 36.17399 22.61036 35.17545 
303 "D31" 65.30251 74.68070 59.24926 34.94065 40.35245 30.81504 
304 "Y24" 0.00000 83.75677 0.00000 13.16600 21.95162 8.855901 
305 "G13" 48.38636 18.23758 55.24071 12.92804 8.611589 14.29421 
306 "P5" 47.80041 47.40215 73.29213 20.19923 17.73308 45.17810 
307 "U32" 70.71183 82.90990 58.36881 41.13493 49.61275 29.82334 
308 "E16" 33.49660 0.00000 23.97650 5.086540 4.533681 4.575681 
309 "A2" 44.27253 47.08782 41.84634 13.99196 14.14662 13.45249 
310 "T23" 87.03288 73.96658 0.00000 52.18673 43.19030 9.557755 
311 "O7" 90.53178 88.10101 50.30137 64.47382 64.10192 23.60759 
312 "L1" 83.01213 18.59922 49.05928 44.14062 24.85355 16.37162 
313 "V15" 49.54147 40.92317 23.70947 14.74737 12.90603 7.465950 
314 "D29" 22.41703 100.0000 50.95598 22.21860 36.11183 20.08806 
315 "L15" 38.24979 0.00000 78.90593 13.05888 9.728389 29.11959 
316 "O5" 100.0000 91.53582 14.81193 68.16078 61.58580 11.45230 
317 "U30" 70.76982 92.40101 85.76638 53.36663 65.66288 72.58775 
318 "L11" 68.87312 70.94682 0.00000 29.45999 29.48201 7.581119 
319 "L13" 65.15297 32.68788 74.76463 29.28987 18.70954 32.77182 
320 "I11" 88.94942 56.76967 41.31685 56.13813 38.10570 18.47023 
321 "Z33" 91.26879 100.0000 36.56214 57.06045 61.73061 13.83471 
322 "O20" 30.91936 61.03304 45.16976 11.85551 18.44025 13.40399 
323 "X23" 76.49348 22.22782 65.00649 37.33965 21.37241 22.77838 
324 "D19" 26.14939 40.29755 61.24056 9.903870 10.11205 26.61027 
325 "Z7" 100.0000 51.19860 63.54314 60.65248 38.15711 29.64049 
326 "A37" 66.80552 40.64088 56.54231 30.22511 19.72077 22.52508 
327 "S21" 49.38125 42.46586 58.25742 17.48999 14.07031 25.62442 
328 "S2" 47.66155 75.46349 50.80339 22.46518 33.66256 20.39306 
329 "H21" 51.81506 58.05447 44.61433 18.61075 20.52354 15.04529 
330 "H4" 100.0000 30.71489 25.12856 57.85395 33.34710 11.55406 
331 "V19" 0.00000 0.00000 20.95674 1.308724 1.325517 1.500690 
332 "V10" 11.60296 48.79530 33.41878 7.065508 10.22019 7.941029 
333 "C24" 24.65095 67.01305 0.00000 12.56078 18.83125 8.012554 
334 "E4" 25.17433 15.17662 37.26253 4.018605 3.620704 5.403065 
335 "Y34" 66.28367 59.57427 48.29023 30.08747 26.92235 19.56414 
336 "C12" 23.82238 14.13291 60.83162 7.359923 6.186141 16.39466 
337 "N29" 0.00000 66.11276 28.17578 10.10104 16.50074 8.481797 
338 "Q3" 41.03609 37.96902 44.16114 10.94426 9.701257 12.89789 
339 "G31" 33.35317 44.07111 22.82444 8.625940 10.25442 6.338457 
340 "F1" 50.79118 82.58030 62.55894 28.23656 41.33365 32.20500 
341 "J6" 65.13008 71.20623 70.88579 38.14192 40.35975 50.05855 
342 "L8" 24.29541 100.0000 87.96521 25.47789 38.98240 41.54138 
343 "T20" 46.00595 60.12207 51.21843 17.16575 21.10847 20.18308 
344 "E1" 24.57618 45.59396 100.0000 20.43161 19.55041 60.41065 
345 "A34" 41.19936 55.72595 20.79194 13.01427 16.62308 7.275850 
346 "B9" 61.32448 82.38346 52.97169 31.32335 42.47909 22.71746 
347 "L5" 51.35271 43.65606 13.23720 15.95286 14.45363 6.882390 
348 "W19" 56.60487 26.40421 82.85039 22.38307 15.71744 36.17529 
349 "W33" 86.54459 94.11002 87.00542 75.19521 82.52717 83.95334 
350 "B12" 53.24331 21.30922 40.36011 14.95327 10.07661 10.05714 
351 "J11" 83.78271 53.51644 74.72801 51.70551 34.78054 42.87148 
352 "M27" 71.76471 86.49271 86.24399 53.90525 62.39738 77.85598 
353 "A11" 23.91852 74.06882 80.54932 20.87628 30.90239 51.47092 
354 "O1" 0.00000 0.00000 0.00000 1.195074 1.213565 1.310912 
355 "R13" 14.86534 16.42023 0.00000 2.583068 2.608498 2.476599 
356 "W15" 24.67231 49.84360 49.84360 9.061048 12.32618 15.82068 
357 "V6" 0.00000 100.0000 72.72450 22.46052 36.40985 30.57732 
358 "W36" 100.0000 100.0000 0.00000 66.84135 64.40221 11.57521 
359 "P28" 70.32273 74.97673 79.95117 47.25119 48.81546 67.01897 
360 "Q31" 41.42672 25.58175 62.06760 12.01109 8.726406 22.80921 
361 "H31" 31.47326 19.65057 0.00000 6.003548 5.584202 4.385055 
362 "O28" 62.41398 79.41558 36.56214 29.04899 38.56738 12.35092 
363 "L19" 81.18715 75.49706 24.90730 46.21568 41.81362 9.958006 
364 "P32" 82.10880 66.18906 60.80262 51.63238 41.74807 34.78648 
365 "R29" 40.57832 46.32181 47.18395 13.16620 13.52415 16.98725 
