targets/EPSON_ET-2800/CustomET2800Chart-Refined.ti1
CTI1   

DESCRIPTOR "Argyll Calibration Target chart information 1"
ORIGINATOR "Argyll targen"
CREATED "Sat Jun  1 13:45:12 2024"
APPROX_WHITE_POINT "93.963954 98.860119 107.775742"
COLOR_REP "iRGB"
ACCURATE_EXPECTED_VALUES "true"
WHITE_COLOR_PATCHES "4"
BLACK_COLOR_PATCHES "4"
OFPS_PATCHES "954"

NUMBER_OF_FIELDS 7
BEGIN_DATA_FORMAT
SAMPLE_ID RGB_R RGB_G RGB_B XYZ_X XYZ_Y XYZ_Z 
END_DATA_FORMAT

NUMBER_OF_SETS 962
BEGIN_DATA
1 100.0000 100.0000 100.0000 93.96395 98.86012 107.7757 
2 44.57453 55.78088 41.50400 14.73433 17.95042 12.86172 
3 67.64620 14.49316 86.23132 25.64479 16.62003 31.64087 
4 60.70960 88.09678 66.21886 37.59593 51.73302 39.64529 
5 63.81914 66.69916 48.68720 29.98271 31.32055 19.63836 
6 31.37045 59.83543 22.12226 11.06458 16.19447 7.321708 
7 77.89852 20.29025 95.53834 30.05996 19.49383 34.79854 
8 79.18483 88.73316 42.98484 46.09025 53.23293 15.52515 
9 100.0000 63.14639 73.01307 65.87714 46.05006 43.36146 
10 100.0000 0.00000 100.0000 39.85178 24.24015 32.93884 
11 0.00000 100.0000 0.00000 17.86594 29.69199 11.75329 
12 0.00000 0.00000 100.0000 11.08473 9.188789 36.95378 
13 0.00000 100.0000 100.0000 25.87302 38.97210 50.83557 
14 100.0000 0.00000 0.00000 48.56732 27.57922 9.093903 
15 0.00000 62.08954 100.0000 21.04757 24.25820 71.56303 
16 100.0000 100.0000 67.07130 83.64058 90.91817 43.19546 
17 45.56579 0.00000 0.00000 12.62605 9.618996 7.039926 
18 100.0000 68.44197 100.0000 72.47744 56.68534 78.87102 
19 69.56526 100.0000 0.00000 32.50665 44.72911 12.22546 
20 0.00000 48.34369 0.00000 6.666642 8.545604 5.301807 
21 100.0000 70.92942 0.00000 64.29191 48.49563 11.05239 
22 65.30363 0.00000 100.0000 23.21102 16.48425 36.23537 
23 0.00000 0.00000 64.43474 4.668918 4.188202 9.042448 
24 63.86478 100.0000 100.0000 43.88749 55.80538 70.20940 
25 100.0000 0.00000 65.12848 56.14843 30.90863 22.25113 
26 0.00000 47.82599 55.20406 8.432452 11.73968 18.98563 
27 52.56750 50.27644 0.00000 18.29935 17.81082 7.305608 
28 0.00000 100.0000 57.31868 20.57779 33.09055 20.37353 
29 63.59155 70.46391 100.0000 44.81966 45.06154 87.28398 
30 100.0000 68.09562 62.32021 66.43742 48.73165 35.36269 
31 66.51476 100.0000 66.76980 42.47784 58.69196 38.07152 
32 47.23566 47.58009 50.55579 16.46255 15.41987 20.27251 
33 52.77197 0.00000 55.91302 13.00116 8.940831 12.42724 
34 68.85960 0.00000 0.00000 25.81500 16.73211 9.109433 
35 0.00000 81.48801 100.0000 22.36807 30.56676 64.71815 
36 0.00000 39.45258 100.0000 18.01753 16.83244 56.89611 
37 100.0000 84.91867 100.0000 85.80836 79.92612 98.76588 
38 40.25479 63.45177 0.00000 13.20737 17.95278 6.662604 
39 100.0000 85.10180 49.88598 71.50040 62.24934 24.68975 
40 0.00000 54.99558 38.15662 8.048088 12.74206 9.097648 
41 83.69182 100.0000 24.18681 43.37960 51.88795 11.89088 
42 0.00000 70.52570 0.00000 11.03192 16.98714 7.867322 
43 25.57064 0.00000 0.00000 4.825345 4.468451 4.130241 
44 0.00000 31.61263 35.33394 4.033761 4.740104 5.705267 
45 100.0000 43.27002 0.00000 60.63314 36.25141 10.09239 
46 68.20705 69.52607 58.11103 36.64807 37.10066 30.38165 
47 100.0000 100.0000 84.75933 88.91688 95.93052 77.04521 
48 0.00000 32.60733 62.51058 7.393508 7.534340 19.46070 
49 80.00112 0.00000 100.0000 28.75988 18.50033 32.37183 
50 100.0000 100.0000 46.52426 71.65614 71.19609 16.94777 
51 100.0000 41.63583 100.0000 55.55466 36.26871 49.92782 
52 0.00000 22.78905 0.00000 2.996904 3.227959 2.909605 
53 0.00000 0.00000 36.02746 2.282017 2.235583 3.069493 
54 48.96484 38.18808 100.0000 24.31921 20.71989 53.34471 
55 68.97499 41.74975 0.00000 29.26588 20.89817 7.764380 
56 48.38211 81.16725 100.0000 36.17250 45.08894 87.66755 
57 100.0000 0.00000 43.32983 59.02138 32.73312 15.35650 
58 100.0000 84.59383 76.32993 78.73363 71.21520 59.18295 
59 43.47059 100.0000 0.00000 20.76876 32.81862 12.23491 
60 37.04856 0.00000 100.0000 15.68845 12.58096 39.61739 
61 34.48584 34.54671 0.00000 7.344985 7.404667 4.688074 
62 76.52659 70.43844 0.00000 37.39869 33.27391 7.965354 
63 72.23236 0.00000 54.58922 29.43625 17.38809 16.64226 
64 48.23309 67.70461 56.45464 21.91939 28.95088 26.62306 
65 74.93132 43.34711 100.0000 38.93045 29.57302 55.81158 
66 34.15165 0.00000 65.47598 8.589787 6.592138 15.96101 
67 41.86661 100.0000 84.21639 32.37247 48.12500 47.34986 
68 78.94973 90.81389 100.0000 66.26540 73.14599 99.95818 
69 0.00000 0.00000 81.50244 7.378038 6.353393 18.95542 
70 70.46594 54.69230 59.90465 34.76248 26.77015 29.67901 
71 0.00000 68.35479 63.83063 13.03353 21.70575 24.36364 
72 0.00000 100.0000 31.43369 18.07896 30.10349 13.30492 
73 0.00000 100.0000 86.91773 23.28677 36.18614 37.08402 
74 64.23606 75.59448 0.00000 25.48385 29.39428 7.494918 
75 42.88754 55.77859 69.39879 18.99553 20.51351 42.37380 
76 37.65156 58.44443 100.0000 25.68256 26.64604 70.09138 
77 100.0000 85.42474 0.00000 66.49769 56.53412 11.40991 
78 88.78856 100.0000 0.00000 47.16665 52.48113 10.79046 
79 77.82281 100.0000 89.81699 62.23885 75.52911 76.45981 
80 26.10735 0.00000 41.00350 4.002803 3.592463 4.956599 
81 100.0000 45.39003 77.32504 62.49748 37.75701 36.70707 
82 51.96835 27.82137 0.00000 15.14940 11.90677 6.961794 
83 100.0000 0.00000 83.45712 49.49479 28.33890 29.15247 
84 39.36398 47.92103 39.64015 11.81475 13.38194 11.77212 
85 46.72365 100.0000 100.0000 37.42064 52.09124 67.54985 
86 100.0000 66.11773 38.75964 64.87835 45.94134 18.52525 
87 0.00000 50.15721 72.96276 12.31751 15.10120 41.59432 
88 82.28260 100.0000 56.58405 52.12894 65.11987 26.13936 
89 88.25935 100.0000 100.0000 83.90783 92.69871 105.0108 
90 72.46340 70.43200 76.07902 47.23950 44.61480 59.45599 
91 82.18205 71.60710 100.0000 55.42063 49.50785 80.14504 
92 61.31108 74.50828 45.67148 28.99144 36.53997 16.79634 
93 62.29899 100.0000 37.12696 30.09664 44.27869 17.04719 
94 100.0000 50.30902 38.27813 60.68477 37.76847 16.40723 
95 73.54936 58.04429 45.78317 37.76865 29.60959 18.68468 
96 100.0000 72.07785 78.76559 73.59591 56.94389 57.73573 
97 0.00000 42.68406 27.28054 5.876628 7.764483 6.279277 
98 56.75797 36.03764 65.37966 22.76420 15.31182 28.51703 
99 30.89725 48.83498 0.00000 9.590324 11.43316 6.038406 
100 0.00000 69.72716 80.96648 16.24869 23.71334 44.03595 
101 67.47709 77.34123 70.93403 42.00568 47.55489 50.46742 
102 40.07658 32.35923 32.87054 9.611786 8.366901 8.010594 
103 44.04336 100.0000 56.04977 26.67596 41.61761 23.81082 
104 57.80930 0.00000 70.61779 19.23883 12.14551 21.39593 
105 33.03564 33.76764 60.79840 10.43264 9.009857 25.63213 
106 57.02618 0.00000 28.97384 14.64259 10.03984 8.208127 
107 76.82311 75.18078 44.89633 41.88616 41.47618 16.71091 
108 74.05945 26.75014 0.00000 30.75739 19.61557 7.939310 
109 78.90839 0.00000 25.83659 31.84776 19.12265 10.12039 
110 57.63496 57.66246 69.73209 29.05019 27.06256 46.28716 
111 53.79107 51.65566 36.71453 19.53318 18.60528 11.78873 
112 100.0000 23.91531 0.00000 55.05952 31.83547 9.816038 
113 79.81998 100.0000 0.00000 37.77912 47.30430 10.86826 
114 40.81683 53.33664 52.53208 14.66764 16.88005 21.33143 
115 47.06175 68.34791 70.21596 23.93940 30.36783 44.18152 
116 40.23222 65.80002 42.80403 15.47444 23.44627 13.57702 
117 88.52547 100.0000 75.91480 71.79143 83.82991 59.16155 
118 0.00000 38.47513 81.41983 12.40634 11.92023 45.72200 
119 76.80593 0.00000 75.22574 31.29224 18.15322 23.30107 
120 25.83111 88.20280 100.0000 28.03215 39.61915 68.07768 
121 30.65416 68.03908 100.0000 27.43505 32.55544 82.26177 
122 100.0000 90.31629 88.96691 87.57329 85.36172 87.65668 
123 65.61350 100.0000 82.03476 44.99946 60.44282 54.23475 
124 100.0000 87.18420 67.22009 76.76228 71.27122 45.00839 
125 28.78916 33.39271 40.57015 6.322623 6.293685 9.139915 
126 83.73483 60.89116 0.00000 46.99347 34.84404 8.450425 
127 0.00000 24.12564 52.06024 4.983496 4.910888 9.812604 
128 45.00280 0.00000 22.67830 9.831925 7.703372 7.066374 
129 59.27805 41.98097 41.06192 22.10092 16.06017 12.96619 
130 0.00000 70.60056 43.68642 11.61883 20.51709 12.23192 
131 83.84589 32.05557 100.0000 38.10194 25.37060 42.60077 
132 100.0000 79.90798 59.61951 71.65539 59.85673 35.67147 
133 0.00000 35.49731 51.11614 6.011809 6.905680 12.64644 
134 0.00000 23.44699 80.12003 8.549134 7.550559 27.88079 
135 49.48248 0.00000 78.26205 16.29427 11.09523 27.44183 
136 76.50122 36.51637 48.29420 40.24663 24.26703 17.73340 
137 25.79565 79.73098 0.00000 15.11835 24.91627 9.705205 
138 86.54162 83.78975 100.0000 71.86850 70.28515 98.89376 
139 0.00000 90.44658 100.0000 22.79799 33.07860 53.78447 
140 60.55308 69.94603 77.67685 35.29710 38.06385 59.23686 
141 100.0000 100.0000 26.89003 65.11994 63.32880 11.74433 
142 53.90753 82.76433 0.00000 23.07117 32.80232 9.569787 
143 85.14059 0.00000 0.00000 33.23525 20.00016 8.595943 
144 55.46362 0.00000 0.00000 18.17566 12.69131 8.213518 
145 0.00000 51.76663 100.0000 20.06381 20.62730 66.58364 
146 26.48821 26.41659 100.0000 17.07047 14.81623 48.89355 
147 100.0000 20.37779 100.0000 48.47794 29.91860 41.06925 
148 100.0000 79.23334 25.28486 68.22740 55.16539 13.20167 
149 63.98228 80.80560 100.0000 47.23805 53.27553 92.05808 
150 36.28384 22.02792 51.17633 8.328871 6.467217 13.58126 
151 0.00000 55.14021 52.27449 9.118004 14.34768 16.39329 
152 76.31287 100.0000 33.66818 38.91960 51.12596 14.61282 
153 100.0000 35.15489 58.53527 59.83727 34.44784 23.69469 
154 60.85927 57.94386 100.0000 37.43175 34.36423 72.88684 
155 20.51825 26.81884 0.00000 4.712529 4.980913 4.008293 
156 73.06306 21.33946 100.0000 28.94415 20.04589 41.07572 
157 79.52527 61.09413 82.11531 50.70112 38.96335 59.41012 
158 67.66441 58.94108 25.62748 30.79224 26.58214 9.289472 
159 48.64981 34.84195 48.66637 15.06629 11.20200 15.86596 
160 49.69770 58.41600 34.54660 17.50004 20.88712 10.47563 
161 0.00000 81.33287 25.04786 13.69926 23.12601 10.03748 
162 29.83321 79.62349 60.52426 18.57998 30.52641 24.62383 
163 100.0000 100.0000 57.75856 74.49570 76.55058 25.40356 
164 83.70145 86.02513 75.36820 68.88593 71.96962 64.47935 
165 56.12970 63.42268 57.07020 25.63071 27.51473 28.31305 
166 0.00000 20.51569 22.64231 2.272388 2.442305 2.635218 
167 62.02271 27.02624 0.00000 21.65018 15.27217 7.695144 
168 23.76550 62.57980 77.92032 17.26600 23.09313 51.51789 
169 21.95976 0.00000 79.30006 8.890664 7.239565 23.72528 
170 82.73226 44.68620 0.00000 46.55173 30.01973 8.569911 
171 41.95487 21.38798 0.00000 9.799721 8.286601 5.789341 
172 77.02810 83.69757 0.00000 39.35727 41.54199 9.296357 
173 0.00000 54.41747 22.15667 8.084962 11.57963 7.194466 
174 100.0000 56.59012 87.79320 68.35305 45.80809 54.77425 
175 100.0000 91.40079 100.0000 91.29704 90.98008 106.4161 
176 28.72510 41.07129 53.69983 9.379088 9.906190 19.78814 
177 80.03685 71.39667 68.74100 53.20005 47.29854 46.69807 
178 57.75896 76.85044 58.52482 29.17597 38.56521 28.40518 
179 0.00000 40.06029 43.36288 5.494914 7.134139 9.121320 
180 44.22688 56.40395 0.00000 14.76698 17.46540 7.201736 
181 78.36844 82.32784 59.19023 51.24633 55.56409 32.72506 
182 27.67949 100.0000 70.82486 24.84565 39.20571 30.50484 
183 0.00000 62.60737 83.87201 15.33047 20.35869 51.75303 
184 22.92384 55.88108 0.00000 10.45761 14.04135 6.834113 
185 30.31694 100.0000 34.49203 20.41252 32.80105 14.70763 
186 73.17330 41.49016 72.45124 38.33728 24.25909 34.36183 
187 20.94620 0.00000 24.70078 2.378685 2.244630 2.521869 
188 21.33022 39.03118 0.00000 7.005883 8.081523 5.437319 
189 43.50178 25.60034 76.32897 16.15905 12.13634 35.79280 
190 100.0000 100.0000 76.03863 87.71389 96.41485 62.04760 
191 30.48119 53.42095 46.60724 10.79742 14.99798 14.92057 
192 100.0000 82.12653 85.21848 80.95782 70.98435 75.70884 
193 59.40056 56.77593 52.74637 24.19961 22.44146 22.36432 
194 79.49209 84.42406 83.41266 64.12986 67.35359 79.09515 
195 83.66098 0.00000 55.73138 39.94213 22.56509 18.41483 
196 52.25227 79.94394 72.21726 32.28538 44.19360 48.52484 
197 39.76923 0.00000 53.82900 7.618320 6.046778 9.504838 
198 0.00000 23.09380 100.0000 13.35371 11.48462 43.65809 
199 100.0000 78.18829 100.0000 79.41000 68.17366 89.01866 
200 85.48617 62.42047 100.0000 54.48137 43.49482 71.07342 
201 74.79575 44.36765 34.20114 39.66338 25.97957 12.95550 
202 50.47688 72.08756 100.0000 35.05249 39.16936 84.38683 
203 100.0000 100.0000 92.66639 90.64024 96.14331 91.09127 
204 100.0000 92.62055 81.29913 85.31337 85.54437 71.00392 
205 57.89438 24.92065 52.71398 20.85150 13.02813 16.12423 
206 15.22123 0.00000 0.00000 2.198048 2.120700 2.191163 
207 25.54556 78.73372 74.91643 20.34782 31.70620 39.22078 
208 59.88076 24.34443 100.0000 25.14091 19.28162 44.88895 
209 76.84892 100.0000 100.0000 65.29875 77.23658 92.61393 
210 100.0000 0.00000 23.93057 59.15158 33.42527 12.25891 
211 27.10688 100.0000 100.0000 27.40881 40.23039 53.31040 
212 21.39113 33.65658 27.99741 4.523074 5.179107 5.082059 
213 0.00000 33.05032 21.14758 3.955845 4.711838 4.112160 
214 87.36927 85.86157 0.00000 52.81976 50.20647 10.68635 
215 62.07665 80.34287 84.98814 43.09713 51.59362 74.42861 
216 33.71559 43.76667 75.28739 15.67506 14.91073 48.23548 
217 26.65508 77.79169 100.0000 27.30706 35.81266 79.75931 
218 66.56904 76.73538 33.69766 31.47340 37.79082 11.11913 
219 22.83878 0.00000 53.33453 4.985183 4.327465 7.995198 
220 65.06411 58.21083 0.00000 26.73031 24.13156 7.715292 
221 49.64122 91.17960 100.0000 37.84201 50.33285 78.76600 
222 81.50845 70.97869 52.18629 49.98710 43.86740 25.45889 
223 46.86800 77.92596 31.31769 19.35770 30.07988 10.72015 
224 35.52608 0.00000 0.00000 7.710258 6.449697 5.196710 
225 65.45805 22.73396 29.08829 24.35000 15.44422 9.463838 
226 73.40506 86.30418 69.15449 50.47711 59.84439 47.95186 
227 27.84521 52.60445 64.86926 12.31459 15.11988 31.61561 
228 0.00000 43.45486 61.15649 9.218163 11.27256 24.65899 
229 59.89527 62.66383 28.39219 23.72510 25.27777 9.077950 
230 0.00000 59.24592 0.00000 9.883264 13.90900 7.499462 
231 100.0000 88.32150 33.72606 70.11505 62.07408 14.61658 
232 57.53386 100.0000 0.00000 26.65296 39.54984 13.09169 
233 0.00000 81.19523 59.90291 15.29896 26.25874 20.79557 
234 26.81351 59.06032 60.77193 12.12823 17.41624 24.65281 
235 41.77301 46.44754 0.00000 11.59214 12.20939 5.919563 
236 0.00000 18.81064 67.25338 5.833489 5.365659 14.12046 
237 0.00000 56.10590 69.45345 11.66538 16.34578 33.45516 
238 91.39110 100.0000 52.95727 63.26595 71.04352 22.38227 
239 61.14013 46.16007 29.87205 24.53463 18.79074 9.668281 
240 85.07540 56.45023 63.15207 53.15936 36.87401 34.37272 
241 100.0000 76.71253 69.64659 73.18340 59.85900 48.15027 
242 81.62387 68.57556 32.37159 49.42031 40.75654 13.09338 
243 75.66164 82.19824 100.0000 54.72407 56.89419 89.66266 
244 54.87844 59.87596 81.28625 30.12679 29.38442 62.52983 
245 42.87786 48.16918 100.0000 25.35308 23.29573 62.14838 
246 72.62258 100.0000 52.34776 37.74523 50.97872 21.49457 
247 86.67006 82.32767 81.13975 72.59018 69.60006 75.85825 
248 50.53901 0.00000 100.0000 18.58592 14.16106 37.53179 
249 62.97035 54.36453 72.20596 32.38561 26.67174 46.79292 
250 25.01321 53.20742 83.47954 16.66272 18.42570 57.53741 
251 0.00000 60.67500 64.77106 11.78739 18.29134 26.73207 
252 100.0000 29.60711 86.59346 51.70260 30.28345 34.04830 
253 100.0000 58.92126 0.00000 62.05925 41.42667 10.82255 
254 33.19461 51.49033 32.15765 10.46486 14.15288 8.868610 
255 59.36052 44.63800 0.00000 21.68083 17.87514 7.359003 
256 46.89814 68.93384 82.95457 26.66970 32.26107 63.63977 
257 26.59103 44.21716 44.22101 8.019297 9.930141 12.39499 
258 28.62438 28.24807 49.30094 7.647196 6.824173 14.86477 
259 56.30042 71.44578 23.16918 22.25218 28.66427 8.360139 
260 83.72596 19.50423 28.57561 43.71805 25.31633 11.03621 
261 22.80228 100.0000 0.00000 18.09987 29.70961 11.55322 
262 51.38782 27.50524 22.92788 15.04725 11.28293 7.780690 
263 53.92773 45.77799 73.34431 22.84740 18.17339 42.04779 
264 84.12865 72.39101 81.16359 62.37137 53.54644 67.98168 
265 100.0000 54.46560 22.54758 58.40837 37.26396 11.72469 
266 32.08236 28.08934 26.59686 6.269749 5.951168 5.701648 
267 51.99140 100.0000 72.38594 32.63604 47.70253 36.90839 
268 51.15769 57.50002 64.32671 22.86661 23.35021 36.76600 
269 59.29838 100.0000 90.93584 42.18880 57.15342 62.10013 
270 49.98503 64.51394 46.29538 19.61717 25.08391 16.52740 
271 88.65331 91.68518 100.0000 80.12578 83.40895 105.3828 
272 0.00000 0.00000 0.00000 1.195074 1.213565 1.310912 
273 54.52441 67.57457 67.63405 28.91365 33.27611 44.40839 
274 0.00000 79.48692 82.51763 19.52273 29.82300 42.74680 
275 100.0000 23.97958 71.26660 59.85574 33.66983 28.79987 
276 42.37491 16.20542 39.48499 7.902879 6.068033 7.238010 
277 42.52832 43.83621 29.30367 11.73650 12.02273 7.927715 
278 63.62385 0.00000 86.50029 22.33977 14.56537 29.68086 
279 0.00000 22.57593 39.35073 3.364221 3.460101 5.167319 
280 0.00000 0.00000 50.06541 2.991508 2.830384 4.901239 
281 82.34166 85.71644 34.59432 49.68481 51.52119 12.47830 
282 27.17090 80.09944 49.29771 15.83344 26.94819 15.80103 
283 76.04525 53.75302 26.27245 40.25286 28.68096 10.14673 
284 0.00000 38.38436 0.00000 4.992236 5.842556 4.282620 
285 62.01480 0.00000 45.27602 17.45141 11.23742 10.95715 
286 56.39990 61.98336 0.00000 20.39664 22.09330 7.312869 
287 83.81191 78.64116 69.23444 61.68126 58.64376 49.56796 
288 100.0000 57.61818 100.0000 64.12627 46.27970 64.86039 
289 17.14369 0.00000 68.26308 5.954904 5.105808 13.01399 
290 67.88986 86.22498 0.00000 31.14380 39.16367 9.521675 
291 66.52877 89.81787 100.0000 51.52487 61.62272 91.55748 
292 71.45625 74.78641 68.97522 45.85732 47.46789 48.51980 
293 19.77504 58.78318 100.0000 23.19467 25.29437 75.10197 
294 0.00000 63.56703 51.27860 10.47142 17.90462 15.10871 
295 63.90768 60.93572 64.35240 32.55973 29.98250 38.68332 
296 25.06236 29.27057 75.68704 11.92024 10.16329 38.50676 
297 78.70861 100.0000 78.07955 57.99218 72.33772 57.28054 
298 71.19538 66.66745 84.65713 45.40415 40.92443 70.04474 
299 89.39254 100.0000 87.45444 76.11516 86.03901 79.03968 
300 51.21272 62.89601 100.0000 34.37377 34.42049 78.74192 
301 0.00000 71.46337 100.0000 22.35440 28.29210 73.51105 
302 89.11357 15.96812 100.0000 36.17399 22.61036 35.17545 
303 65.30199 74.68037 59.24906 34.94065 40.35245 30.81504 
304 0.00000 83.75647 0.00000 13.16600 21.95162 8.855901 
305 48.38706 18.23731 55.24052 12.92804 8.611589 14.29421 
306 47.80042 47.40178 73.29150 20.19923 17.73308 45.17810 
307 70.71188 82.91042 58.36810 41.13493 49.61275 29.82334 
308 33.49689 0.00000 23.97592 5.086540 4.533681 4.575681 
309 44.27278 47.08730 41.84688 13.99196 14.14662 13.45249 
310 87.03274 73.96719 0.00000 52.18673 43.19030 9.557755 
311 90.53168 88.10124 50.30087 64.47382 64.10192 23.60759 
312 83.01252 18.59948 49.05995 44.14062 24.85355 16.37162 
313 49.54211 40.92350 23.70954 14.74737 12.90603 7.465950 
314 22.41725 100.0000 50.95657 22.21860 36.11183 20.08806 
315 38.24984 0.00000 78.90527 13.05888 9.728389 29.11959 
316 100.0000 91.53508 14.81218 68.16078 61.58580 11.45230 
317 70.76975 92.40132 85.76665 53.36663 65.66288 72.58775 
318 68.87332 70.94627 0.00000 29.45999 29.48201 7.581119 
319 65.15274 32.68715 74.76495 29.28987 18.70954 32.77182 
320 88.94938 56.76901 41.31738 56.13813 38.10570 18.47023 
321 91.26839 100.0000 36.56240 57.06045 61.73061 13.83471 
322 30.91932 61.03323 45.16965 11.85551 18.44025 13.40399 
323 76.49360 22.22782 65.00590 37.33965 21.37241 22.77838 
324 26.15010 40.29715 61.23992 9.903870 10.11205 26.61027 
325 100.0000 51.19933 63.54371 60.65248 38.15711 29.64049 
326 66.80557 40.64140 56.54167 30.22511 19.72077 22.52508 
327 49.38128 42.46567 58.25673 17.48999 14.07031 25.62442 
328 47.66095 75.46422 50.80372 22.46518 33.66256 20.39306 
329 51.81453 58.05415 44.61373 18.61075 20.52354 15.04529 
330 100.0000 30.71493 25.12784 57.85395 33.34710 11.55406 
331 0.00000 0.00000 20.95745 1.308724 1.325517 1.500690 
332 11.60231 48.79556 33.41949 7.065508 10.22019 7.941029 
333 24.65067 67.01248 0.00000 12.56078 18.83125 8.012554 
334 25.17423 15.17643 37.26212 4.018605 3.620704 5.403065 
335 66.28425 59.57466 48.28996 30.08747 26.92235 19.56414 
336 23.82177 14.13239 60.83169 7.359923 6.186141 16.39466 
337 0.00000 66.11212 28.17592 10.10104 16.50074 8.481797 
338 41.03608 37.96872 44.16116 10.94426 9.701257 12.89789 
339 33.35254 44.07181 22.82381 8.625940 10.25442 6.338457 
340 50.79107 82.58032 62.55836 28.23656 41.33365 32.20500 
341 65.13035 71.20593 70.88588 38.14192 40.35975 50.05855 
342 24.29577 100.0000 87.96502 25.47789 38.98240 41.54138 
343 46.00640 60.12255 51.21825 17.16575 21.10847 20.18308 
344 24.57692 45.59419 100.0000 20.43161 19.55041 60.41065 
345 41.19995 55.72548 20.79169 13.01427 16.62308 7.275850 
346 61.32401 82.38372 52.97095 31.32335 42.47909 22.71746 
347 51.35217 43.65621 13.23743 15.95286 14.45363 6.882390 
348 56.60436 26.40425 82.84993 22.38307 15.71744 36.17529 
349 86.54529 94.10988 87.00501 75.19521 82.52717 83.95334 
350 53.24326 21.30851 40.35966 14.95327 10.07661 10.05714 
351 83.78215 53.51659 74.72799 51.70551 34.78054 42.87148 
352 71.76402 86.49321 86.24432 53.90525 62.39738 77.85598 
353 23.91857 74.06811 80.54945 20.87628 30.90239 51.47092 
354 0.00000 0.00000 0.00000 1.195074 1.213565 1.310912 
355 14.86473 16.41987 0.00000 2.583068 2.608498 2.476599 
356 24.67298 49.84432 49.84331 9.061048 12.32618 15.82068 
357 0.00000 100.0000 72.72417 22.46052 36.40985 30.57732 
358 100.0000 100.0000 0.00000 66.84135 64.40221 11.57521 
359 70.32282 74.97745 79.95075 47.25119 48.81546 67.01897 
360 41.42737 25.58123 62.06755 12.01109 8.726406 22.80921 
361 31.47390 19.65075 0.00000 6.003548 5.584202 4.385055 
362 62.41355 79.41549 36.56150 29.04899 38.56738 12.35092 
363 81.18773 75.49739 24.90802 46.21568 41.81362 9.958006 
364 82.10813 66.18960 60.80246 51.63238 41.74807 34.78648 
365 40.57906 46.32154 47.18330 13.16620 13.52415 16.98725 
366 77.56013 91.14494 8.670265 36.88293 43.02351 9.514763 
367 56.69930 100.0000 50.20853 30.67410 45.69132 22.59868 
368 53.12916 45.57586 45.77318 18.70282 15.64131 16.18004 
369 72.46964 58.38598 100.0000 43.34135 37.40055 70.84896 
370 63.92905 83.55706 68.95772 39.63459 50.84678 45.05302 
371 0.00000 47.44038 41.71389 6.388051 9.309685 9.219897 
372 42.85214 84.72320 83.89961 29.84792 42.65496 58.69921 
373 35.65939 40.22582 36.00966 8.765752 9.091804 8.802951 
374 86.64857 79.25556 89.38869 70.45257 64.80998 86.02020 
375 72.02457 40.17651 86.15580 34.23663 23.29277 41.89706 
376 81.09795 40.00453 23.13701 48.40965 29.96640 10.67211 
377 87.97052 66.66708 81.48166 62.20575 47.81304 60.85851 
378 69.40237 72.14728 27.19741 32.90022 34.52321 9.460194 
379 36.55193 68.24668 61.10365 17.26205 25.60619 27.67362 
380 85.85289 81.50560 58.33899 61.82218 60.43290 33.94408 
381 35.26620 69.26348 18.58672 13.29591 20.72854 7.857844 
382 52.95952 53.54136 26.62720 18.55663 19.02523 8.636230 
383 0.00000 52.13410 84.62188 14.64523 16.52479 55.41581 
384 18.95809 0.00000 100.0000 11.65818 9.502984 34.31624 
385 46.67350 49.62954 63.75610 18.22254 17.03922 33.87262 
386 11.24329 41.10861 16.17942 6.258490 7.769544 5.723331 
387 30.26816 44.62223 36.37698 8.040935 9.917181 8.930201 
388 74.62716 73.44519 100.0000 48.77297 46.64023 80.89643 
389 64.08387 0.00000 63.06863 22.94423 14.07892 18.04202 
390 19.20404 22.08610 23.55110 3.213255 3.268565 3.659373 
391 44.84269 74.60570 84.82184 28.27226 36.98795 66.44370 
392 70.80947 86.79842 49.16168 38.41064 48.71820 19.72957 
393 45.31306 65.24194 34.04929 15.86487 22.72844 9.696225 
394 52.91424 70.67418 0.00000 18.61217 24.02212 7.182170 
395 63.56355 45.21742 67.78719 28.50323 20.03746 33.07236 
396 69.41844 50.56054 49.90121 32.88462 24.12888 20.94039 
397 18.13146 57.79358 31.17088 9.466152 14.72772 8.520394 
398 69.33438 36.70850 21.32260 32.50273 21.40447 9.222979 
399 78.75149 69.19328 85.31300 54.05188 46.80044 71.30220 
400 16.83307 47.25681 67.58112 11.01234 12.98920 34.96073 
401 100.0000 68.42047 51.80506 67.24899 49.16128 27.52466 
402 87.27186 46.23421 46.89866 53.73883 33.30030 19.95364 
403 68.11520 72.86953 46.68252 33.69809 37.00679 17.48384 
404 9.147636 37.50863 34.95876 5.046996 6.362247 6.953586 
